proprietary/odm/etc/Custom_LUT_hlg.cube
LUT_3D_SIZE 5
0 0 0
0.154448 0 0.00879765
0.309873 0 0.0185728
0.552297 0 0.0332356
1 0 0.0645161
0 0.14565 0
0.146628 0.143695 0
0.308895 0.13392 0
0.553275 0.0801564 0.0234604
1 0 0.0606061
0 0.292278 0
0.0742913 0.2913 0
0.29521 0.288368 0
0.550342 0.274682 0
1 0.174976 0.0439883
0 0.521994 0
0 0.521017 0
0.207234 0.520039 0
0.526882 0.515152 0
1 0.483871 0
0 1 0
0 1 0
0 1 0
0.302053 1 0
1 1 0
0 0 0.127077
0.152493 0 0.136852
0.308895 0 0.14565
0.552297 0 0.155425
1 0 0.172043
0 0.14565 0.14174
0.143695 0.143695 0.143695
0.307918 0.13392 0.147605
0.552297 0.0791789 0.155425
1 0 0.171065
0 0.292278 0.14565
0.0645161 0.2913 0.146628
0.293255 0.288368 0.14956
0.550342 0.274682 0.154448
1 0.173998 0.168133
0 0.521994 0.140762
0 0.521017 0.140762
0.204301 0.520039 0.142717
0.525904 0.515152 0.14565
1 0.482893 0.15738
0 1 0.0518084
0 1 0.0527859
0 1 0.0557185
0.29912 1 0.0625611
1 1 0.0840665
0 0 0.254154
0.144673 0 0.262952
0.305963 0 0.27566
0.550342 0 0.289345
1 0 0.31085
0 0.144673 0.269795
0.131965 0.142717 0.273705
0.304008 0.131965 0.280547
0.55132 0.0742913 0.2913
1 0 0.31085
0 0.292278 0.28348
0 0.2913 0.284457
0.28739 0.28739 0.28739
0.54741 0.273705 0.294233
1 0.172043 0.31085
0 0.521994 0.292278
0 0.521017 0.292278
0.194526 0.520039 0.294233
0.522972 0.515152 0.298143
1 0.482893 0.308895
0 1 0.28348
0 1 0.28348
0 1 0.284457
0.292278 1 0.286413
1 1 0.293255
0 0 0.454545
0.110459 0 0.460411
0.29521 0 0.473118
0.546432 0 0.491691
1 0 0.521994
0 0.14174 0.468231
0.0821114 0.138807 0.471163
0.2913 0.125122 0.479961
0.545455 0.056696 0.495601
1 0 0.521994
0 0.2913 0.486804
0 0.290323 0.487781
0.270772 0.286413 0.492669
0.541544 0.27175 0.502444
1 0.166178 0.524927
0 0.521994 0.506354
0 0.521017 0.507331
0.160313 0.519062 0.509286
0.514174 0.514174 0.514174
1 0.480938 0.528837
0 1 0.522972
0 1 0.522972
0 1 0.523949
0.269795 1 0.525904
1 1 0.533724
0 0 0.883675
0 0 0.887586
0.228739 0 0.896383
0.521994 0 0.916911
1 0 0.956989
0 0.11828 0.892473
0 0.112414 0.895406
0.217986 0.0899316 0.903226
0.519062 0 0.920821
1 0 0.958944
0 0.285435 0.911046
0 0.28348 0.913001
0.176931 0.278592 0.917889
0.511241 0.260997 0.931574
1 0.136852 0.963832
0 0.520039 0.940371
0 0.519062 0.941349
0 0.517107 0.944282
0.475073 0.510264 0.952102
1 0.475073 0.974585
0 1 0.98436
0 1 0.98436
0 1 0.985337
0.135875 1 0.98827
1 0.999022 1
