proprietary/odm/etc/Custom_LUT_hlg.cube
LUT_3D_SIZE 9
0 0 0
0.0772239 0 0.00391007
0.154448 0 0.00879765
0.231672 0 0.0136852
0.309873 0 0.0185728
0.406647 0 0.0244379
0.552297 0 0.0332356
0.766373 0 0.0459433
1 0 0.0645161
0 0.0723363 0
0.0733138 0.0713587 0
0.154448 0.0664712 0
0.231672 0.0537634 0.00684262
0.309873 0.0156403 0.0136852
0.406647 0 0.0215054
0.553275 0 0.0312805
0.766373 0 0.0449658
1 0 0.0635386
0 0.14565 0
0.0371457 0.14565 0
0.146628 0.143695 0
0.229717 0.139785 0
0.308895 0.13392 0
0.406647 0.121212 0
0.553275 0.0801564 0.0234604
0.767351 0 0.0400782
1 0 0.0606061
0 0.218964 0
0 0.218964 0
0.1261 0.217986 0
0.220919 0.216031 0
0.304985 0.213099 0
0.404692 0.206256 0
0.552297 0.190616 0
0.767351 0.144673 0.0293255
1 0 0.054741
0 0.292278 0
0 0.292278 0
0.0742913 0.2913 0
0.203324 0.290323 0
0.29521 0.288368 0
0.399805 0.284457 0
0.550342 0.274682 0
0.767351 0.250244 0
1 0.174976 0.0439883
0 0.384164 0
0 0.384164 0
0 0.383187 0
0.160313 0.382209 0
0.272727 0.381232 0
0.387097 0.379277 0
0.544477 0.372434 0
0.764418 0.357771 0
1 0.317693 0.00293255
0 0.521994 0
0 0.521994 0
0 0.521017 0
0 0.521017 0
0.207234 0.520039 0
0.352884 0.518084 0
0.526882 0.515152 0
0.756598 0.506354 0
1 0.483871 0
0 0.72434 0
0 0.72434 0
0 0.723363 0
0 0.723363 0
0 0.722385 0
0.243402 0.721408 0
0.474096 0.719453 0
0.730205 0.714565 0
1 0.701857 0
0 1 0
0 1 0
0 1 0
0 1 0
0 1 0
0 1 0
0.302053 1 0
0.653959 1 0
1 1 0
0 0 0.0635386
0.0762463 0 0.0684262
0.15347 0 0.0723363
0.231672 0 0.0762463
0.308895 0 0.0782014
0.406647 0 0.0821114
0.552297 0 0.0860215
0.766373 0 0.0938416
1 0 0.104594
0 0.0723363 0.0703812
0.0713587 0.0713587 0.0713587
0.15347 0.0664712 0.0733138
0.231672 0.0537634 0.0762463
0.309873 0.0127077 0.0782014
0.406647 0 0.0811339
0.552297 0 0.0860215
0.766373 0 0.0928641
1 0 0.104594
0 0.14565 0.0723363
0.0322581 0.14565 0.0733138
0.146628 0.143695 0.0742913
0.228739 0.139785 0.0762463
0.308895 0.13392 0.0772239
0.406647 0.120235 0.0801564
0.553275 0.0801564 0.0840665
0.767351 0 0.0909091
1 0 0.102639
0 0.218964 0.0713587
0 0.218964 0.0723363
0.125122 0.217986 0.0723363
0.219941 0.216031 0.0742913
0.304008 0.213099 0.0752688
0.404692 0.206256 0.0772239
0.552297 0.190616 0.0811339
0.767351 0.144673 0.0879765
1 0 0.0997067
0 0.292278 0.0674487
0 0.292278 0.0684262
0.0723363 0.2913 0.0684262
0.202346 0.290323 0.0694037
0.294233 0.288368 0.0713587
0.399805 0.284457 0.0733138
0.550342 0.274682 0.0772239
0.766373 0.250244 0.0840665
1 0.174976 0.0957967
0 0.384164 0.058651
0 0.384164 0.058651
0 0.383187 0.058651
0.159335 0.382209 0.0596285
0.27175 0.381232 0.0615836
0.387097 0.379277 0.0635386
0.544477 0.372434 0.0674487
0.764418 0.357771 0.0752688
1 0.317693 0.0879765
0 0.521994 0.0136852
0 0.521994 0.0146628
0 0.521017 0.0166178
0 0.521017 0.0205279
0.206256 0.520039 0.0244379
0.351906 0.518084 0.0293255
0.525904 0.515152 0.0371457
0.756598 0.506354 0.0498534
1 0.482893 0.0674487
0 0.72434 0
0 0.72434 0
0 0.723363 0
0 0.723363 0
0 0.722385 0
0.242424 0.721408 0
0.474096 0.719453 0
0.730205 0.714565 0
1 0.701857 0
0 1 0
0 1 0
0 1 0
0 1 0
0 1 0
0 1 0
0.301075 1 0
0.653959 1 0
1 1 0
0 0 0.127077
0.0723363 0 0.130987
0.152493 0 0.136852
0.230694 0 0.14174
0.308895 0 0.14565
0.40567 0 0.150538
0.552297 0 0.155425
0.766373 0 0.162268
1 0 0.172043
0 0.0723363 0.134897
0.0654936 0.0713587 0.135875
0.151515 0.0654936 0.139785
0.230694 0.0518084 0.143695
0.308895 0 0.146628
0.40567 0 0.150538
0.552297 0 0.155425
0.766373 0 0.162268
1 0 0.172043
0 0.14565 0.14174
0 0.144673 0.14174
0.143695 0.143695 0.143695
0.227761 0.139785 0.14565
0.307918 0.13392 0.147605
0.40567 0.120235 0.150538
0.552297 0.0791789 0.155425
0.766373 0 0.162268
1 0 0.171065
0 0.218964 0.144673
0 0.218964 0.144673
0.121212 0.217986 0.14565
0.218964 0.216031 0.147605
0.30303 0.213099 0.148583
0.403715 0.206256 0.151515
0.552297 0.190616 0.155425
0.767351 0.143695 0.16129
1 0 0.170088
0 0.292278 0.14565
0 0.292278 0.146628
0.0645161 0.2913 0.146628
0.200391 0.290323 0.147605
0.293255 0.288368 0.14956
0.398827 0.284457 0.150538
0.550342 0.274682 0.154448
0.766373 0.250244 0.159335
1 0.173998 0.168133
0 0.384164 0.14565
0 0.384164 0.14565
0 0.383187 0.146628
0.156403 0.382209 0.146628
0.270772 0.381232 0.147605
0.386119 0.378299 0.14956
0.5435 0.372434 0.151515
0.764418 0.357771 0.156403
1 0.317693 0.1652
0 0.521994 0.140762
0 0.521994 0.140762
0 0.521017 0.140762
0 0.521017 0.14174
0.204301 0.520039 0.142717
0.350929 0.518084 0.143695
0.525904 0.515152 0.14565
0.755621 0.506354 0.14956
1 0.482893 0.15738
0 0.72434 0.123167
0 0.72434 0.123167
0 0.723363 0.123167
0 0.723363 0.124145
0 0.722385 0.125122
0.240469 0.721408 0.1261
0.473118 0.719453 0.128055
0.730205 0.714565 0.131965
1 0.701857 0.139785
0 1 0.0518084
0 1 0.0518084
0 1 0.0527859
0 1 0.0537634
0 1 0.0557185
0 1 0.0576735
0.29912 1 0.0625611
0.653959 1 0.0703812
1 1 0.0840665
0 0 0.190616
0.0635386 0 0.194526
0.14956 0 0.200391
0.228739 0 0.206256
0.307918 0 0.211144
0.404692 0 0.217009
0.55132 0 0.222874
0.766373 0 0.231672
1 0 0.241447
0 0.0713587 0.197458
0.0537634 0.0694037 0.199413
0.147605 0.0635386 0.203324
0.228739 0.0498534 0.208211
0.307918 0 0.212121
0.40567 0 0.217009
0.55132 0 0.223851
0.766373 0 0.231672
1 0 0.241447
0 0.14565 0.206256
0 0.144673 0.207234
0.138807 0.142717 0.209189
0.225806 0.138807 0.212121
0.305963 0.132942 0.215054
0.404692 0.119257 0.218964
0.552297 0.0772239 0.223851
0.766373 0 0.231672
1 0 0.241447
0 0.218964 0.212121
0 0.218964 0.213099
0.11437 0.217986 0.214076
0.216031 0.216031 0.216031
0.301075 0.212121 0.217986
0.402737 0.206256 0.220919
0.55132 0.189638 0.224829
0.766373 0.142717 0.231672
1 0 0.240469
0 0.292278 0.216031
0 0.292278 0.216031
0.0469208 0.2913 0.217009
0.196481 0.290323 0.217986
0.2913 0.288368 0.219941
0.396872 0.284457 0.221896
0.549365 0.274682 0.225806
0.766373 0.249267 0.231672
1 0.173021 0.240469
0 0.384164 0.218964
0 0.384164 0.218964
0 0.383187 0.219941
0.150538 0.382209 0.219941
0.26784 0.381232 0.220919
0.384164 0.378299 0.222874
0.542522 0.372434 0.225806
0.763441 0.357771 0.230694
1 0.316716 0.238514
0 0.521994 0.219941
0 0.521994 0.219941
0 0.521017 0.219941
0 0.521017 0.220919
0.200391 0.520039 0.220919
0.348974 0.518084 0.221896
0.524927 0.515152 0.224829
0.755621 0.506354 0.228739
1 0.482893 0.235582
0 0.72434 0.214076
0 0.72434 0.214076
0 0.723363 0.214076
0 0.723363 0.215054
0 0.722385 0.215054
0.236559 0.721408 0.216031
0.472141 0.719453 0.217986
0.729228 0.714565 0.220919
1 0.70088 0.226784
0 1 0.193548
0 1 0.193548
0 1 0.193548
0 1 0.193548
0 1 0.194526
0 1 0.194526
0.296188 1 0.196481
0.652004 1 0.199413
1 1 0.205279
0 0 0.254154
0.0449658 0 0.257087
0.144673 0 0.262952
0.226784 0 0.269795
0.305963 0 0.27566
0.403715 0 0.281525
0.550342 0 0.289345
0.765396 0 0.29912
1 0 0.31085
0 0.0703812 0.260997
0.0224829 0.0684262 0.262952
0.142717 0.0615836 0.266862
0.225806 0.0449658 0.27175
0.305963 0 0.276637
0.403715 0 0.282502
0.55132 0 0.290323
0.765396 0 0.29912
1 0 0.31085
0 0.144673 0.269795
0 0.144673 0.270772
0.131965 0.142717 0.273705
0.221896 0.138807 0.276637
0.304008 0.131965 0.280547
0.403715 0.117302 0.284457
0.55132 0.0742913 0.2913
0.765396 0 0.300098
1 0 0.31085
0 0.218964 0.277615
0 0.217986 0.278592
0.104594 0.217009 0.27957
0.211144 0.215054 0.281525
0.298143 0.212121 0.284457
0.400782 0.205279 0.28739
0.550342 0.188661 0.293255
0.765396 0.14174 0.300098
1 0 0.31085
0 0.292278 0.28348
0 0.2913 0.28348
0 0.2913 0.284457
0.190616 0.289345 0.286413
0.28739 0.28739 0.28739
0.394917 0.28348 0.290323
0.54741 0.273705 0.294233
0.765396 0.248289 0.301075
1 0.172043 0.31085
0 0.384164 0.288368
0 0.383187 0.288368
0 0.383187 0.289345
0.142717 0.382209 0.290323
0.26393 0.381232 0.2913
0.382209 0.378299 0.293255
0.541544 0.372434 0.296188
0.762463 0.356794 0.302053
1 0.316716 0.31085
0 0.521994 0.292278
0 0.521994 0.292278
0 0.521017 0.292278
0 0.521017 0.293255
0.194526 0.520039 0.294233
0.346041 0.518084 0.29521
0.522972 0.515152 0.298143
0.754643 0.505376 0.302053
1 0.482893 0.308895
0 0.72434 0.292278
0 0.72434 0.292278
0 0.723363 0.293255
0 0.723363 0.293255
0 0.722385 0.294233
0.231672 0.721408 0.29521
0.469208 0.719453 0.296188
0.727273 0.714565 0.300098
1 0.70088 0.304985
0 1 0.28348
0 1 0.28348
0 1 0.28348
0 1 0.284457
0 1 0.284457
0 1 0.285435
0.292278 1 0.286413
0.651026 1 0.288368
1 1 0.293255
0 0 0.334311
0 0 0.336266
0.135875 0 0.342131
0.221896 0 0.348974
0.30303 0 0.354839
0.40176 0 0.361681
0.549365 0 0.371457
0.764418 0 0.382209
1 0 0.395894
0 0.0664712 0.339198
0 0.0645161 0.341153
0.131965 0.056696 0.346041
0.220919 0.0361681 0.350929
0.302053 0 0.356794
0.40176 0 0.362659
0.549365 0 0.371457
0.764418 0 0.383187
1 0 0.395894
0 0.144673 0.348974
0 0.143695 0.349951
0.11828 0.14174 0.352884
0.216031 0.136852 0.356794
0.300098 0.13001 0.360704
0.400782 0.115347 0.365591
0.549365 0.0684262 0.373412
0.764418 0 0.384164
1 0 0.395894
0 0.217986 0.357771
0 0.217986 0.358749
0.0840665 0.217009 0.360704
0.203324 0.215054 0.362659
0.294233 0.211144 0.365591
0.397849 0.204301 0.369501
0.548387 0.187683 0.376344
0.764418 0.138807 0.385142
1 0 0.396872
0 0.292278 0.365591
0 0.2913 0.365591
0 0.2913 0.366569
0.181818 0.289345 0.368524
0.282502 0.28739 0.370479
0.391984 0.28348 0.373412
0.545455 0.272727 0.379277
0.763441 0.247312 0.386119
1 0.170088 0.396872
0 0.384164 0.372434
0 0.383187 0.372434
0 0.383187 0.373412
0.128055 0.382209 0.374389
0.258065 0.380254 0.376344
0.378299 0.378299 0.378299
0.538612 0.371457 0.382209
0.761486 0.356794 0.388074
1 0.315738 0.397849
0 0.521994 0.379277
0 0.521994 0.379277
0 0.521017 0.380254
0 0.521017 0.380254
0.183773 0.520039 0.381232
0.341153 0.518084 0.383187
0.520039 0.514174 0.386119
0.752688 0.505376 0.391007
1 0.481916 0.398827
0 0.72434 0.384164
0 0.723363 0.385142
0 0.723363 0.385142
0 0.723363 0.385142
0 0.722385 0.386119
0.222874 0.721408 0.387097
0.466276 0.719453 0.389052
0.725318 0.713587 0.391984
1 0.70088 0.397849
0 1 0.383187
0 1 0.383187
0 1 0.384164
0 1 0.384164
0 1 0.384164
0 1 0.385142
0.285435 1 0.386119
0.648094 1 0.389052
1 1 0.392962
0 0 0.454545
0 0 0.456501
0.110459 0 0.460411
0.210166 0 0.467253
0.29521 0 0.473118
0.396872 0 0.480938
0.546432 0 0.491691
0.762463 0 0.505376
1 0 0.521994
0 0.0576735 0.458456
0 0.0537634 0.460411
0.104594 0.0430108 0.464321
0.208211 0 0.469208
0.294233 0 0.475073
0.396872 0 0.482893
0.546432 0 0.492669
0.762463 0 0.506354
1 0 0.521994
0 0.14174 0.468231
0 0.140762 0.469208
0.0821114 0.138807 0.471163
0.201369 0.13392 0.475073
0.2913 0.125122 0.479961
0.394917 0.109482 0.485826
0.545455 0.056696 0.495601
0.762463 0 0.507331
1 0 0.521994
0 0.217009 0.478006
0 0.217009 0.478006
0 0.216031 0.479961
0.186706 0.213099 0.482893
0.28348 0.209189 0.485826
0.391007 0.202346 0.490714
0.544477 0.184751 0.498534
0.762463 0.13392 0.509286
1 0 0.522972
0 0.2913 0.486804
0 0.2913 0.486804
0 0.290323 0.487781
0.160313 0.288368 0.489736
0.270772 0.286413 0.492669
0.384164 0.281525 0.496579
0.541544 0.27175 0.502444
0.761486 0.245357 0.511241
1 0.166178 0.524927
0 0.383187 0.495601
0 0.383187 0.495601
0 0.382209 0.496579
0.0889541 0.381232 0.497556
0.243402 0.380254 0.499511
0.369501 0.377322 0.502444
0.533724 0.371457 0.507331
0.758553 0.354839 0.515152
1 0.313783 0.525904
0 0.521994 0.506354
0 0.521017 0.506354
0 0.521017 0.507331
0 0.520039 0.507331
0.160313 0.519062 0.509286
0.330401 0.518084 0.510264
0.514174 0.514174 0.514174
0.748778 0.504399 0.520039
1 0.480938 0.528837
0 0.723363 0.516129
0 0.723363 0.516129
0 0.723363 0.517107
0 0.723363 0.517107
0 0.722385 0.518084
0.203324 0.721408 0.519062
0.458456 0.719453 0.521017
0.721408 0.713587 0.524927
1 0.70088 0.531769
0 1 0.522972
0 1 0.522972
0 1 0.522972
0 1 0.523949
0 1 0.523949
0 1 0.524927
0.269795 1 0.525904
0.643206 1 0.528837
1 1 0.533724
0 0 0.630499
0 0 0.631476
0 0 0.635386
0.179863 0 0.640274
0.277615 0 0.647116
0.385142 0 0.654936
0.538612 0 0.666667
0.757576 0 0.682307
1 0 0.701857
0 0.0195503 0.633431
0 0 0.634409
0 0 0.638319
0.175953 0 0.643206
0.27566 0 0.649071
0.385142 0 0.655914
0.538612 0 0.667644
0.757576 0 0.683284
1 0 0.701857
0 0.135875 0.641251
0 0.134897 0.642229
0 0.130987 0.645161
0.166178 0.125122 0.649071
0.270772 0.116325 0.653959
0.382209 0.0967742 0.659824
0.537634 0 0.670577
0.757576 0 0.685239
1 0 0.702835
0 0.214076 0.651026
0 0.214076 0.652004
0 0.212121 0.653959
0.143695 0.209189 0.656892
0.260997 0.205279 0.660802
0.377322 0.197458 0.665689
0.535679 0.177908 0.674487
0.756598 0.123167 0.688172
1 0 0.70479
0 0.289345 0.660802
0 0.289345 0.661779
0 0.288368 0.662757
0.100684 0.286413 0.664712
0.245357 0.284457 0.667644
0.369501 0.27957 0.672532
0.531769 0.26784 0.679374
0.755621 0.240469 0.691105
1 0.15738 0.706745
0 0.382209 0.672532
0 0.382209 0.672532
0 0.382209 0.673509
0 0.380254 0.675464
0.212121 0.379277 0.677419
0.351906 0.376344 0.680352
0.522972 0.369501 0.686217
0.751711 0.352884 0.695992
1 0.309873 0.709677
0 0.521017 0.686217
0 0.521017 0.686217
0 0.521017 0.687195
0 0.520039 0.688172
0.0899316 0.519062 0.690127
0.308895 0.517107 0.692082
0.501466 0.513196 0.695992
0.741935 0.503421 0.702835
1 0.479961 0.714565
0 0.723363 0.701857
0 0.723363 0.701857
0 0.723363 0.702835
0 0.722385 0.702835
0 0.722385 0.703812
0.154448 0.721408 0.705767
0.442815 0.718475 0.707722
0.71261 0.71261 0.71261
1 0.699902 0.721408
0 1 0.71652
0 1 0.71652
0 1 0.717498
0 1 0.717498
0 1 0.717498
0 1 0.718475
0.235582 1 0.72043
0.631476 1 0.723363
1 1 0.729228
0 0 0.883675
0 0 0.884653
0 0 0.887586
0.0469208 0 0.891496
0.228739 0 0.896383
0.356794 0 0.904203
0.521994 0 0.916911
0.746823 0 0.933529
1 0 0.956989
0 0 0.886608
0 0 0.886608
0 0 0.889541
0.0156403 0 0.893451
0.226784 0 0.898338
0.355816 0 0.906158
0.521017 0 0.917889
0.746823 0 0.934506
1 0 0.956989
0 0.11828 0.892473
0 0.116325 0.893451
0 0.112414 0.895406
0 0.103617 0.899316
0.217986 0.0899316 0.903226
0.351906 0.0596285 0.910068
0.519062 0 0.920821
0.746823 0 0.936461
1 0 0.958944
0 0.206256 0.901271
0 0.206256 0.902248
0 0.204301 0.903226
0 0.200391 0.906158
0.202346 0.195503 0.910068
0.344086 0.185728 0.915934
0.516129 0.164223 0.925709
0.744868 0.0957967 0.940371
1 0 0.960899
0 0.285435 0.911046
0 0.285435 0.911046
0 0.28348 0.913001
0 0.281525 0.914956
0.176931 0.278592 0.917889
0.333333 0.272727 0.922776
0.511241 0.260997 0.931574
0.742913 0.230694 0.944282
1 0.136852 0.963832
0 0.380254 0.923754
0 0.380254 0.923754
0 0.379277 0.924731
0 0.377322 0.926686
0.113392 0.375367 0.928641
0.311828 0.372434 0.932551
0.500489 0.364614 0.939394
0.738025 0.347019 0.950147
1 0.302053 0.967742
0 0.520039 0.940371
0 0.520039 0.940371
0 0.519062 0.941349
0 0.518084 0.942326
0 0.517107 0.944282
0.255132 0.515152 0.947214
0.475073 0.510264 0.952102
0.726295 0.500489 0.960899
1 0.475073 0.974585
0 0.723363 0.961877
0 0.722385 0.961877
0 0.722385 0.961877
0 0.722385 0.962854
0 0.721408 0.963832
0 0.72043 0.965787
0.408602 0.717498 0.968719
0.695015 0.711632 0.974585
1 0.697947 0.985337
0 1 0.98436
0 1 0.98436
0 1 0.98436
0 1 0.985337
0 1 0.985337
0 1 0.986315
0.135875 1 0.98827
0.608993 1 0.99218
1 0.999022 1
