proprietary/odm/etc/Custom_LUT_hlg.cube
LUT_3D_SIZE 17
0 0 0
0.0381232 0 0.00195503
0.0772239 0 0.00391007
0.115347 0 0.00684262
0.154448 0 0.00879765
0.192571 0 0.0117302
0.231672 0 0.0136852
0.270772 0 0.0156403
0.309873 0 0.0185728
0.352884 0 0.0205279
0.406647 0 0.0244379
0.472141 0 0.028348
0.552297 0 0.0332356
0.650049 0 0.0391007
0.766373 0 0.0459433
0.907136 0 0.054741
1 0 0.0645161
0 0.0361681 0
0.0361681 0.0351906 0
0.0762463 0.0332356 0
0.115347 0.026393 0.00293255
0.154448 0.00782014 0.00684262
0.193548 0 0.00977517
0.231672 0 0.0127077
0.270772 0 0.0146628
0.309873 0 0.0175953
0.352884 0 0.0205279
0.406647 0 0.0234604
0.472141 0 0.0273705
0.552297 0 0.0322581
0.650049 0 0.0381232
0.766373 0 0.0459433
0.907136 0 0.054741
1 0 0.0645161
0 0.0723363 0
0.0185728 0.0723363 0
0.0733138 0.0713587 0
0.11437 0.0694037 0
0.154448 0.0664712 0
0.193548 0.0615836 0
0.231672 0.0537634 0.00684262
0.270772 0.0420332 0.0107527
0.309873 0.0156403 0.0136852
0.352884 0 0.0175953
0.406647 0 0.0215054
0.473118 0 0.0254154
0.553275 0 0.0312805
0.650049 0 0.0371457
0.766373 0 0.0449658
0.907136 0 0.0537634
1 0 0.0635386
0 0.109482 0
0 0.108504 0
0.0625611 0.108504 0
0.110459 0.107527 0
0.151515 0.106549 0
0.191593 0.103617 0
0.231672 0.100684 0
0.270772 0.0957967 0
0.309873 0.0899316 0.00293255
0.352884 0.0801564 0.0107527
0.406647 0.0635386 0.0166178
0.473118 0 0.0224829
0.553275 0 0.028348
0.650049 0 0.0351906
0.767351 0 0.0430108
0.907136 0 0.0518084
1 0 0.0625611
0 0.14565 0
0 0.14565 0
0.0371457 0.14565 0
0.100684 0.144673 0
0.146628 0.143695 0
0.188661 0.142717 0
0.229717 0.139785 0
0.269795 0.13783 0
0.308895 0.13392 0
0.352884 0.129032 0
0.406647 0.121212 0
0.473118 0.106549 0.0146628
0.553275 0.0801564 0.0234604
0.650049 0 0.0312805
0.767351 0 0.0400782
0.908113 0 0.0488759
1 0 0.0606061
0 0.181818 0
0 0.181818 0
0 0.181818 0
0.085044 0.181818 0
0.138807 0.180841 0
0.183773 0.179863 0
0.225806 0.178886 0
0.266862 0.176931 0
0.30694 0.173998 0
0.351906 0.171065 0
0.406647 0.1652 0
0.472141 0.15738 0
0.553275 0.142717 0.0136852
0.650049 0.116325 0.0254154
0.767351 0.0508309 0.0351906
0.908113 0 0.0459433
1 0 0.0576735
0 0.218964 0
0 0.218964 0
0 0.218964 0
0.0557185 0.217986 0
0.1261 0.217986 0
0.175953 0.217009 0
0.220919 0.216031 0
0.262952 0.215054 0
0.304985 0.213099 0
0.349951 0.210166 0
0.404692 0.206256 0
0.472141 0.200391 0
0.552297 0.190616 0
0.650049 0.173998 0.0146628
0.767351 0.144673 0.0293255
0.908113 0.0742913 0.0410557
1 0 0.054741
0 0.255132 0
0 0.255132 0
0 0.255132 0
0 0.255132 0
0.106549 0.254154 0
0.1652 0.254154 0
0.213099 0.253177 0
0.258065 0.252199 0
0.300098 0.251222 0
0.347019 0.249267 0
0.402737 0.246334 0
0.470186 0.241447 0
0.552297 0.233627 0
0.650049 0.221896 0
0.767351 0.201369 0.0185728
0.908113 0.1652 0.0351906
1 0.0703812 0.0498534
0 0.292278 0
0 0.292278 0
0 0.292278 0
0 0.2913 0
0.0742913 0.2913 0
0.14956 0.2913 0
0.203324 0.290323 0
0.250244 0.289345 0
0.29521 0.288368 0
0.342131 0.286413 0
0.399805 0.284457 0
0.468231 0.280547 0
0.550342 0.274682 0
0.649071 0.265885 0
0.767351 0.250244 0
0.908113 0.223851 0.0254154
1 0.174976 0.0439883
0 0.333333 0
0 0.333333 0
0 0.333333 0
0 0.332356 0
0 0.332356 0
0.124145 0.332356 0
0.187683 0.331378 0
0.239492 0.330401 0
0.286413 0.330401 0
0.336266 0.328446 0
0.394917 0.326491 0
0.465298 0.323558 0
0.548387 0.319648 0
0.648094 0.311828 0
0.766373 0.300098 0
0.907136 0.280547 0
1 0.246334 0.0342131
0 0.384164 0
0 0.384164 0
0 0.384164 0
0 0.383187 0
0 0.383187 0
0.0654936 0.383187 0
0.160313 0.382209 0
0.220919 0.382209 0
0.272727 0.381232 0
0.325513 0.380254 0
0.387097 0.379277 0
0.459433 0.376344 0
0.544477 0.372434 0
0.645161 0.367546 0
0.764418 0.357771 0
0.907136 0.343109 0
1 0.317693 0.00293255
0 0.445748 0
0 0.445748 0
0 0.445748 0
0 0.445748 0
0 0.445748 0
0 0.445748 0
0.102639 0.44477 0
0.188661 0.44477 0
0.249267 0.443793 0
0.307918 0.442815 0
0.374389 0.441838 0
0.450635 0.439883 0
0.537634 0.43695 0
0.641251 0.43304 0
0.761486 0.426197 0
0.905181 0.414467 0
1 0.395894 0
0 0.521994 0
0 0.521994 0
0 0.521994 0
0 0.521994 0
0 0.521017 0
0 0.521017 0
0 0.521017 0
0.11828 0.521017 0
0.207234 0.520039 0
0.278592 0.519062 0
0.352884 0.518084 0
0.434018 0.517107 0
0.526882 0.515152 0
0.632454 0.511241 0
0.756598 0.506354 0
0.902248 0.497556 0
1 0.483871 0
0 0.613881 0
0 0.613881 0
0 0.613881 0
0 0.612903 0
0 0.612903 0
0 0.612903 0
0 0.612903 0
0 0.612903 0
0.108504 0.611926 0
0.222874 0.611926 0
0.314761 0.610948 0
0.407625 0.609971 0
0.507331 0.608016 0
0.618768 0.605083 0
0.746823 0.601173 0
0.895406 0.59433 0
1 0.584555 0
0 0.72434 0
0 0.72434 0
0 0.72434 0
0 0.723363 0
0 0.723363 0
0 0.723363 0
0 0.723363 0
0 0.723363 0
0 0.722385 0
0.0527859 0.722385 0
0.243402 0.721408 0
0.360704 0.72043 0
0.474096 0.719453 0
0.595308 0.717498 0
0.730205 0.714565 0
0.883675 0.709677 0
1 0.701857 0
0 0.856305 0
0 0.856305 0
0 0.856305 0
0 0.856305 0
0 0.856305 0
0 0.856305 0
0 0.856305 0
0 0.856305 0
0 0.855327 0
0 0.855327 0
0 0.85435 0
0.268817 0.85435 0
0.416422 0.853372 0
0.556207 0.851417 0
0.702835 0.849462 0
0.864125 0.845552 0
1 0.839687 0
0 1 0
0 1 0
0 1 0
0 1 0
0 1 0
0 1 0
0 1 0
0 1 0
0 1 0
0 1 0
0 1 0
0 1 0
0.302053 1 0
0.485826 1 0
0.653959 1 0
0.83089 1 0
1 1 0
0 0 0.0312805
0.0381232 0 0.0342131
0.0762463 0 0.0361681
0.115347 0 0.0381232
0.154448 0 0.0391007
0.192571 0 0.0400782
0.231672 0 0.0410557
0.270772 0 0.0430108
0.308895 0 0.0439883
0.352884 0 0.0449658
0.406647 0 0.0469208
0.472141 0 0.0498534
0.552297 0 0.0527859
0.650049 0 0.056696
0.766373 0 0.0625611
0.907136 0 0.0684262
1 0 0.0772239
0 0.0361681 0.0351906
0.0351906 0.0351906 0.0351906
0.0762463 0.0332356 0.0361681
0.115347 0.026393 0.0381232
0.154448 0.0058651 0.0391007
0.193548 0 0.0400782
0.231672 0 0.0410557
0.270772 0 0.0420332
0.309873 0 0.0439883
0.352884 0 0.0449658
0.406647 0 0.0469208
0.472141 0 0.0498534
0.552297 0 0.0527859
0.650049 0 0.056696
0.766373 0 0.0615836
0.907136 0 0.0684262
1 0 0.0772239
0 0.0723363 0.0361681
0.0156403 0.0723363 0.0361681
0.0723363 0.0713587 0.0371457
0.11437 0.0694037 0.0371457
0.15347 0.0664712 0.0381232
0.192571 0.0615836 0.0391007
0.231672 0.0537634 0.0400782
0.270772 0.0420332 0.0420332
0.309873 0.0146628 0.0430108
0.352884 0 0.0439883
0.406647 0 0.0459433
0.473118 0 0.0488759
0.553275 0 0.0518084
0.650049 0 0.0557185
0.766373 0 0.0615836
0.907136 0 0.0674487
1 0 0.0762463
0 0.109482 0.0351906
0 0.108504 0.0361681
0.0615836 0.108504 0.0361681
0.109482 0.107527 0.0361681
0.151515 0.106549 0.0371457
0.191593 0.103617 0.0381232
0.231672 0.100684 0.0391007
0.270772 0.0957967 0.0400782
0.309873 0.0899316 0.0410557
0.352884 0.0801564 0.0430108
0.406647 0.0635386 0.0449658
0.473118 0 0.0469208
0.553275 0 0.0498534
0.650049 0 0.054741
0.767351 0 0.0596285
0.907136 0 0.0664712
1 0 0.0752688
0 0.14565 0.0332356
0 0.14565 0.0342131
0.0361681 0.14565 0.0342131
0.100684 0.144673 0.0342131
0.146628 0.143695 0.0351906
0.188661 0.142717 0.0361681
0.229717 0.139785 0.0371457
0.269795 0.13783 0.0381232
0.308895 0.13392 0.0391007
0.352884 0.129032 0.0400782
0.406647 0.121212 0.0420332
0.473118 0.106549 0.0449658
0.553275 0.0801564 0.0478983
0.650049 0 0.0527859
0.767351 0 0.0576735
0.907136 0 0.0654936
1 0 0.0733138
0 0.181818 0.030303
0 0.181818 0.030303
0 0.181818 0.030303
0.085044 0.181818 0.0312805
0.138807 0.180841 0.0312805
0.183773 0.179863 0.0322581
0.225806 0.178886 0.0332356
0.266862 0.176931 0.0342131
0.30694 0.173998 0.0351906
0.351906 0.171065 0.0371457
0.40567 0.1652 0.0391007
0.472141 0.15738 0.0420332
0.553275 0.142717 0.0449658
0.650049 0.116325 0.0498534
0.767351 0.0508309 0.0557185
0.908113 0 0.0625611
1 0 0.0713587
0 0.218964 0.0244379
0 0.218964 0.0244379
0 0.218964 0.0244379
0.054741 0.217986 0.0254154
0.1261 0.217986 0.0254154
0.175953 0.217009 0.026393
0.220919 0.216031 0.0273705
0.262952 0.215054 0.0293255
0.304008 0.213099 0.030303
0.349951 0.210166 0.0322581
0.404692 0.206256 0.0342131
0.472141 0.200391 0.0371457
0.552297 0.190616 0.0410557
0.650049 0.173998 0.0459433
0.767351 0.144673 0.0518084
0.908113 0.0742913 0.0596285
1 0 0.0694037
0 0.255132 0.0107527
0 0.255132 0.0107527
0 0.255132 0.0117302
0 0.255132 0.0127077
0.106549 0.254154 0.0146628
0.164223 0.254154 0.0166178
0.213099 0.253177 0.0175953
0.258065 0.252199 0.0195503
0.300098 0.251222 0.0215054
0.347019 0.249267 0.0244379
0.402737 0.246334 0.0273705
0.470186 0.241447 0.030303
0.552297 0.233627 0.0351906
0.650049 0.221896 0.0410557
0.767351 0.201369 0.0478983
0.908113 0.1652 0.0557185
1 0.0703812 0.0654936
0 0.292278 0
0 0.292278 0
0 0.292278 0
0 0.2913 0
0.0742913 0.2913 0
0.148583 0.2913 0
0.202346 0.290323 0
0.250244 0.289345 0
0.294233 0.288368 0
0.342131 0.286413 0
0.399805 0.284457 0.0127077
0.468231 0.280547 0.0195503
0.550342 0.274682 0.026393
0.649071 0.265885 0.0342131
0.767351 0.250244 0.0420332
0.908113 0.223851 0.0508309
1 0.174976 0.0615836
0 0.333333 0
0 0.333333 0
0 0.333333 0
0 0.332356 0
0 0.332356 0
0.124145 0.332356 0
0.187683 0.331378 0
0.239492 0.330401 0
0.286413 0.330401 0
0.336266 0.328446 0
0.394917 0.326491 0
0.465298 0.323558 0
0.548387 0.319648 0
0.648094 0.311828 0.0205279
0.766373 0.300098 0.0322581
0.907136 0.280547 0.0439883
1 0.246334 0.056696
0 0.384164 0
0 0.384164 0
0 0.384164 0
0 0.383187 0
0 0.383187 0
0.0645161 0.383187 0
0.160313 0.382209 0
0.220919 0.382209 0
0.272727 0.381232 0
0.325513 0.380254 0
0.387097 0.379277 0
0.459433 0.376344 0
0.544477 0.372434 0
0.645161 0.367546 0
0.764418 0.357771 0
0.907136 0.343109 0.030303
1 0.317693 0.0469208
0 0.445748 0
0 0.445748 0
0 0.445748 0
0 0.445748 0
0 0.445748 0
0 0.445748 0
0.102639 0.44477 0
0.187683 0.44477 0
0.249267 0.443793 0
0.307918 0.442815 0
0.374389 0.441838 0
0.449658 0.439883 0
0.537634 0.43695 0
0.641251 0.43304 0
0.761486 0.426197 0
0.905181 0.414467 0
1 0.395894 0.0254154
0 0.521994 0
0 0.521994 0
0 0.521994 0
0 0.521994 0
0 0.521017 0
0 0.521017 0
0 0.521017 0
0.11828 0.521017 0
0.207234 0.520039 0
0.278592 0.519062 0
0.352884 0.518084 0
0.434018 0.517107 0
0.526882 0.515152 0
0.632454 0.511241 0
0.756598 0.506354 0
0.902248 0.497556 0
1 0.483871 0
0 0.613881 0
0 0.613881 0
0 0.613881 0
0 0.612903 0
0 0.612903 0
0 0.612903 0
0 0.612903 0
0 0.612903 0
0.107527 0.611926 0
0.222874 0.611926 0
0.314761 0.610948 0
0.407625 0.609971 0
0.507331 0.608016 0
0.618768 0.605083 0
0.746823 0.601173 0
0.895406 0.59433 0
1 0.584555 0
0 0.72434 0
0 0.72434 0
0 0.72434 0
0 0.723363 0
0 0.723363 0
0 0.723363 0
0 0.723363 0
0 0.723363 0
0 0.722385 0
0.0518084 0.722385 0
0.243402 0.721408 0
0.360704 0.72043 0
0.474096 0.719453 0
0.595308 0.717498 0
0.730205 0.714565 0
0.883675 0.709677 0
1 0.701857 0
0 0.856305 0
0 0.856305 0
0 0.856305 0
0 0.856305 0
0 0.856305 0
0 0.856305 0
0 0.856305 0
0 0.856305 0
0 0.855327 0
0 0.855327 0
0 0.85435 0
0.268817 0.85435 0
0.416422 0.853372 0
0.556207 0.851417 0
0.701857 0.849462 0
0.864125 0.845552 0
1 0.839687 0
0 1 0
0 1 0
0 1 0
0 1 0
0 1 0
0 1 0
0 1 0
0 1 0
0 1 0
0 1 0
0 1 0
0 1 0
0.302053 1 0
0.485826 1 0
0.653959 1 0
0.83089 1 0
1 1 0
0 0 0.0635386
0.0361681 0 0.0654936
0.0762463 0 0.0684262
0.115347 0 0.0703812
0.15347 0 0.0723363
0.192571 0 0.0742913
0.231672 0 0.0762463
0.270772 0 0.0772239
0.308895 0 0.0782014
0.352884 0 0.0801564
0.406647 0 0.0821114
0.472141 0 0.0840665
0.552297 0 0.0860215
0.650049 0 0.0889541
0.766373 0 0.0938416
0.907136 0 0.0987292
1 0 0.104594
0 0.0361681 0.0674487
0.0322581 0.0351906 0.0674487
0.0752688 0.0322581 0.0694037
0.115347 0.0254154 0.0713587
0.15347 0 0.0733138
0.192571 0 0.0742913
0.231672 0 0.0762463
0.270772 0 0.0772239
0.308895 0 0.0782014
0.352884 0 0.0801564
0.406647 0 0.0811339
0.472141 0 0.0840665
0.552297 0 0.0860215
0.650049 0 0.0889541
0.766373 0 0.0928641
0.907136 0 0.0987292
1 0 0.104594
0 0.0723363 0.0703812
0 0.0723363 0.0703812
0.0713587 0.0713587 0.0713587
0.113392 0.0694037 0.0723363
0.15347 0.0664712 0.0733138
0.192571 0.0615836 0.0752688
0.231672 0.0537634 0.0762463
0.270772 0.0410557 0.0772239
0.309873 0.0127077 0.0782014
0.352884 0 0.0801564
0.406647 0 0.0811339
0.472141 0 0.083089
0.552297 0 0.0860215
0.650049 0 0.0889541
0.766373 0 0.0928641
0.907136 0 0.0977517
1 0 0.104594
0 0.109482 0.0723363
0 0.108504 0.0723363
0.0606061 0.108504 0.0723363
0.108504 0.107527 0.0733138
0.151515 0.105572 0.0742913
0.191593 0.103617 0.0752688
0.230694 0.0997067 0.0762463
0.270772 0.0957967 0.0772239
0.308895 0.0889541 0.0782014
0.352884 0.0801564 0.0791789
0.406647 0.0625611 0.0811339
0.473118 0 0.083089
0.553275 0 0.085044
0.650049 0 0.0879765
0.767351 0 0.0918866
0.907136 0 0.0967742
1 0 0.103617
0 0.14565 0.0723363
0 0.14565 0.0733138
0.0322581 0.14565 0.0733138
0.0997067 0.144673 0.0733138
0.146628 0.143695 0.0742913
0.188661 0.14174 0.0752688
0.228739 0.139785 0.0762463
0.268817 0.13783 0.0762463
0.308895 0.13392 0.0772239
0.352884 0.129032 0.0782014
0.406647 0.120235 0.0801564
0.473118 0.106549 0.0821114
0.553275 0.0801564 0.0840665
0.650049 0 0.086999
0.767351 0 0.0909091
0.907136 0 0.0957967
1 0 0.102639
0 0.181818 0.0723363
0 0.181818 0.0723363
0 0.181818 0.0733138
0.083089 0.181818 0.0733138
0.13783 0.180841 0.0733138
0.182796 0.179863 0.0742913
0.225806 0.178886 0.0752688
0.266862 0.176931 0.0762463
0.30694 0.173998 0.0762463
0.351906 0.171065 0.0772239
0.40567 0.1652 0.0791789
0.472141 0.15738 0.0811339
0.553275 0.142717 0.083089
0.650049 0.116325 0.0860215
0.767351 0.0498534 0.0899316
0.908113 0 0.0948192
1 0 0.101662
0 0.218964 0.0713587
0 0.218964 0.0713587
0 0.218964 0.0723363
0.0527859 0.217986 0.0723363
0.125122 0.217986 0.0723363
0.174976 0.217009 0.0733138
0.219941 0.216031 0.0742913
0.262952 0.215054 0.0742913
0.304008 0.213099 0.0752688
0.349951 0.210166 0.0762463
0.404692 0.206256 0.0772239
0.472141 0.200391 0.0791789
0.552297 0.190616 0.0811339
0.650049 0.173998 0.0840665
0.767351 0.144673 0.0879765
0.908113 0.0742913 0.0928641
1 0 0.0997067
0 0.255132 0.0703812
0 0.255132 0.0703812
0 0.255132 0.0703812
0 0.255132 0.0703812
0.105572 0.254154 0.0713587
0.164223 0.254154 0.0713587
0.212121 0.253177 0.0723363
0.257087 0.252199 0.0723363
0.300098 0.251222 0.0733138
0.346041 0.249267 0.0742913
0.402737 0.246334 0.0752688
0.470186 0.241447 0.0772239
0.552297 0.233627 0.0791789
0.650049 0.221896 0.0821114
0.767351 0.201369 0.0860215
0.908113 0.164223 0.0909091
1 0.0703812 0.0977517
0 0.292278 0.0674487
0 0.292278 0.0684262
0 0.292278 0.0684262
0 0.2913 0.0684262
0.0723363 0.2913 0.0684262
0.148583 0.2913 0.0694037
0.202346 0.290323 0.0694037
0.250244 0.289345 0.0703812
0.294233 0.288368 0.0713587
0.342131 0.286413 0.0713587
0.399805 0.284457 0.0733138
0.468231 0.280547 0.0742913
0.550342 0.274682 0.0772239
0.649071 0.265885 0.0801564
0.766373 0.250244 0.0840665
0.908113 0.223851 0.0889541
1 0.174976 0.0957967
0 0.333333 0.0645161
0 0.333333 0.0645161
0 0.333333 0.0645161
0 0.332356 0.0645161
0 0.332356 0.0654936
0.123167 0.332356 0.0654936
0.186706 0.331378 0.0664712
0.238514 0.330401 0.0664712
0.286413 0.330401 0.0674487
0.336266 0.328446 0.0684262
0.394917 0.326491 0.0694037
0.465298 0.323558 0.0713587
0.548387 0.319648 0.0733138
0.648094 0.311828 0.0762463
0.766373 0.300098 0.0801564
0.907136 0.27957 0.085044
1 0.245357 0.0928641
0 0.384164 0.058651
0 0.384164 0.058651
0 0.384164 0.058651
0 0.383187 0.058651
0 0.383187 0.058651
0.0625611 0.383187 0.0596285
0.159335 0.382209 0.0596285
0.219941 0.382209 0.0606061
0.27175 0.381232 0.0615836
0.325513 0.380254 0.0625611
0.387097 0.379277 0.0635386
0.459433 0.376344 0.0654936
0.544477 0.372434 0.0674487
0.645161 0.367546 0.0703812
0.764418 0.357771 0.0752688
0.907136 0.343109 0.0801564
1 0.317693 0.0879765
0 0.445748 0.0469208
0 0.445748 0.0469208
0 0.445748 0.0469208
0 0.445748 0.0469208
0 0.445748 0.0478983
0 0.445748 0.0478983
0.100684 0.44477 0.0488759
0.187683 0.44477 0.0498534
0.249267 0.443793 0.0508309
0.307918 0.442815 0.0518084
0.374389 0.441838 0.0527859
0.449658 0.439883 0.054741
0.537634 0.43695 0.0576735
0.640274 0.43304 0.0615836
0.761486 0.426197 0.0654936
0.905181 0.414467 0.0723363
1 0.395894 0.0801564
0 0.521994 0.0136852
0 0.521994 0.0136852
0 0.521994 0.0146628
0 0.521994 0.0156403
0 0.521017 0.0166178
0 0.521017 0.0185728
0 0.521017 0.0205279
0.117302 0.521017 0.0224829
0.206256 0.520039 0.0244379
0.277615 0.519062 0.026393
0.351906 0.518084 0.0293255
0.434018 0.517107 0.0322581
0.525904 0.515152 0.0371457
0.632454 0.511241 0.0430108
0.756598 0.506354 0.0498534
0.901271 0.497556 0.0576735
1 0.482893 0.0674487
0 0.613881 0
0 0.613881 0
0 0.613881 0
0 0.612903 0
0 0.612903 0
0 0.612903 0
0 0.612903 0
0 0.612903 0
0.106549 0.611926 0
0.221896 0.611926 0
0.314761 0.610948 0
0.406647 0.609971 0
0.507331 0.608016 0
0.618768 0.605083 0
0.746823 0.601173 0
0.895406 0.59433 0.0156403
1 0.584555 0.0400782
0 0.72434 0
0 0.72434 0
0 0.72434 0
0 0.723363 0
0 0.723363 0
0 0.723363 0
0 0.723363 0
0 0.723363 0
0 0.722385 0
0.0478983 0.722385 0
0.242424 0.721408 0
0.359726 0.72043 0
0.474096 0.719453 0
0.595308 0.717498 0
0.730205 0.714565 0
0.883675 0.709677 0
1 0.701857 0
0 0.856305 0
0 0.856305 0
0 0.856305 0
0 0.856305 0
0 0.856305 0
0 0.856305 0
0 0.856305 0
0 0.856305 0
0 0.855327 0
0 0.855327 0
0 0.85435 0
0.26784 0.85435 0
0.416422 0.853372 0
0.55523 0.851417 0
0.701857 0.849462 0
0.864125 0.845552 0
1 0.839687 0
0 1 0
0 1 0
0 1 0
0 1 0
0 1 0
0 1 0
0 1 0
0 1 0
0 1 0
0 1 0
0 1 0
0 1 0
0.301075 1 0
0.484848 1 0
0.653959 1 0
0.83089 1 0
1 1 0
0 0 0.0948192
0.0312805 0 0.0967742
0.0742913 0 0.0997067
0.11437 0 0.102639
0.15347 0 0.105572
0.192571 0 0.107527
0.231672 0 0.109482
0.269795 0 0.111437
0.308895 0 0.112414
0.352884 0 0.11437
0.406647 0 0.116325
0.472141 0 0.11828
0.552297 0 0.121212
0.649071 0 0.124145
0.766373 0 0.128055
0.907136 0 0.131965
1 0 0.13783
0 0.0351906 0.0987292
0.026393 0.0342131 0.0997067
0.0733138 0.0312805 0.101662
0.11437 0.0244379 0.103617
0.15347 0 0.105572
0.192571 0 0.107527
0.231672 0 0.109482
0.269795 0 0.111437
0.308895 0 0.112414
0.352884 0 0.11437
0.406647 0 0.116325
0.472141 0 0.11828
0.552297 0 0.121212
0.650049 0 0.124145
0.766373 0 0.128055
0.907136 0 0.131965
