proprietary/odm/etc/hdr3dlut_pq_qcom_grid_out_rgb.cube
LUT_3D_SIZE 5
0 0 0
0.138807 0 0.00782014
0.432063 0 0.0254154
0.744868 0 0.0449658
1 0 0.11828
0 0.121212 0
0.12219 0.119257 0
0.42913 0.0527859 0.0185728
0.742913 0 0.0410557
1 0 0.11828
0 0.391984 0
0 0.391007 0
0.389052 0.380254 0
0.722385 0.352884 0
1 0 0.111437
0 0.672532 0
0 0.672532 0
0.253177 0.667644 0
0.668622 0.653959 0
1 0 0.0928641
0 1 0
0 1 0
0 1 0
0 1 0
1 1 0
0 0 0.148583
0.131965 0 0.11828
0.431085 0 0.117302
0.743891 0 0.12219
1 0 0.138807
0 0.121212 0.117302
0.11828 0.11828 0.11828
0.428153 0.0508309 0.116325
0.741935 0 0.121212
1 0 0.13783
0 0.391007 0.100684
0 0.391007 0.100684
0.388074 0.380254 0.102639
0.721408 0.352884 0.107527
1 0 0.131965
0 0.672532 0.0459433
0 0.672532 0.0459433
0.252199 0.666667 0.0508309
0.667644 0.653959 0.0615836
1 0 0.116325
0 1 0
0 1 0
0 1 0
0 1 0
1 1 0
0 0 0.391984
0.0860215 0 0.392962
0.423265 0 0.381232
0.739003 0 0.383187
1 0 0.280547
0 0.112414 0.386119
0.0576735 0.108504 0.383187
0.420332 0.0254154 0.381232
0.738025 0 0.382209
1 0 0.27957
0 0.390029 0.378299
0 0.389052 0.378299
0.378299 0.378299 0.378299
0.717498 0.351906 0.379277
1 0 0.274682
0 0.671554 0.370479
0 0.671554 0.370479
0.235582 0.666667 0.370479
0.662757 0.652981 0.371457
1 0 0.261975
0 1 0
0 1 0
0 1 0
0 1 0
1 1 0
0 0 0.653959
0 0 0.653959
0.40176 0 0.655914
0.72825 0 0.655914
1 0 0.457478
0 0.0909091 0.653959
0 0.0860215 0.653959
0.398827 0 0.655914
0.726295 0 0.655914
1 0 0.456501
0 0.385142 0.653959
0 0.385142 0.653959
0.352884 0.374389 0.653959
0.705767 0.347019 0.654936
1 0 0.449658
0 0.669599 0.650049
0 0.669599 0.650049
0.186706 0.663734 0.650049
0.651026 0.650049 0.651026
1 0 0.434995
0 1 0.251222
0 1 0.251222
0 1 0.250244
0 1 0.249267
1 1 0.224829
0 0 1
0 0 1
0 0 1
0.269795 0 1
1 0 1
0 0 1
0 0 1
0 0 1
0.26393 0 1
1 0 1
0 0.249267 1
0 0.248289 1
0 0.227761 1
0.177908 0.171065 1
1 0 1
0 0.57478 1
0 0.573803 1
0 0.561095 1
0 0.531769 1
1 0 1
0 1 1
0 1 1
0 1 1
0 1 1
1 0.999022 1
