proprietary/odm/etc/hdr3dlut_pq_qcom_grid_out_rgb.cube
LUT_3D_SIZE 9
0 0 0
0.0635386 0 0.00391007
0.138807 0 0.00782014
0.27957 0 0.0166178
0.432063 0 0.0254154
0.569892 0 0.0342131
0.744868 0 0.0449658
0.964809 0 0.0576735
1 0 0.11828
0 0.0537634 0
0.0518084 0.0508309 0
0.131965 0.0293255 0.00391007
0.278592 0 0.0156403
0.432063 0 0.0254154
0.569892 0 0.0332356
0.743891 0 0.0439883
0.964809 0 0.0576735
1 0 0.11828
0 0.121212 0
0 0.121212 0
0.12219 0.119257 0
0.26784 0.100684 0
0.42913 0.0527859 0.0185728
0.567937 0 0.0293255
0.742913 0 0.0410557
0.963832 0 0.0557185
1 0 0.11828
0 0.247312 0
0 0.247312 0
0 0.246334 0
0.246334 0.240469 0
0.4174 0.227761 0
0.560117 0.210166 0
0.73607 0.173021 0.0224829
0.959922 0.0527859 0.0449658
1 0 0.115347
0 0.391984 0
0 0.391007 0
0 0.391007 0
0.185728 0.387097 0
0.389052 0.380254 0
0.539589 0.370479 0
0.722385 0.352884 0
0.950147 0.320626 0
1 0 0.111437
0 0.515152 0
0 0.515152 0
0 0.514174 0
0 0.512219 0
0.347019 0.507331 0
0.512219 0.501466 0
0.703812 0.489736 0
0.936461 0.467253 0
1 0 0.104594
0 0.672532 0
0 0.672532 0
0 0.672532 0
0 0.670577 0
0.253177 0.667644 0
0.460411 0.662757 0
0.668622 0.653959 0
0.912023 0.638319 0
1 0 0.0928641
0 0.872923 0
0 0.872923 0
0 0.872923 0
0 0.870968 0
0 0.869013 0
0.345064 0.863148 0
0.592375 0.844575 0
0.832845 0.814272 0
1 0.337243 0.0703812
0 1 0
0 1 0
0 1 0
0 1 0
0 1 0
0 1 0
0 1 0
0 1 0
1 1 0
0 0 0.056696
0.0615836 0 0.0557185
0.13783 0 0.0439883
0.27957 0 0.0449658
0.432063 0 0.0478983
0.569892 0 0.0518084
0.743891 0 0.0596285
0.964809 0 0.0694037
1 0 0.121212
0 0.0527859 0.0518084
0.0498534 0.0498534 0.0498534
0.131965 0.028348 0.0420332
0.277615 0 0.0439883
0.432063 0 0.0469208
0.569892 0 0.0518084
0.743891 0 0.058651
0.964809 0 0.0694037
1 0 0.121212
0 0.121212 0.0391007
0 0.121212 0.0391007
0.121212 0.119257 0.0391007
0.26784 0.100684 0.0400782
0.42913 0.0527859 0.0449658
0.567937 0 0.0498534
0.742913 0 0.056696
0.963832 0 0.0674487
1 0 0.120235
0 0.247312 0.0127077
0 0.247312 0.0136852
0 0.246334 0.0146628
0.245357 0.240469 0.0205279
0.4174 0.227761 0.028348
0.560117 0.210166 0.0361681
0.73607 0.173021 0.0459433
0.959922 0.0527859 0.0596285
1 0 0.11828
0 0.391984 0
0 0.391007 0
0 0.391007 0
0.185728 0.387097 0
0.389052 0.380254 0
0.539589 0.370479 0
0.722385 0.352884 0
0.950147 0.320626 0.0322581
1 0 0.113392
0 0.515152 0
0 0.515152 0
0 0.514174 0
0 0.512219 0
0.347019 0.507331 0
0.512219 0.501466 0
0.703812 0.489736 0
0.936461 0.467253 0
1 0 0.107527
0 0.672532 0
0 0.672532 0
0 0.672532 0
0 0.670577 0
0.253177 0.667644 0
0.459433 0.662757 0
0.668622 0.653959 0
0.912023 0.638319 0
1 0 0.0957967
0 0.872923 0
0 0.872923 0
0 0.872923 0
0 0.870968 0
0 0.869013 0
0.344086 0.863148 0
0.592375 0.844575 0
0.832845 0.814272 0
1 0.337243 0.0733138
0 1 0
0 1 0
0 1 0
0 1 0
0 1 0
0 1 0
0 1 0
0 1 0
1 1 0
0 0 0.148583
0.0449658 0 0.143695
0.131965 0 0.11828
0.277615 0 0.11828
0.431085 0 0.117302
0.569892 0 0.119257
0.743891 0 0.12219
0.964809 0 0.127077
1 0 0.138807
0 0.0478983 0.136852
0.0332356 0.0449658 0.132942
0.129032 0.0254154 0.117302
0.276637 0 0.11828
0.431085 0 0.117302
0.569892 0 0.119257
0.743891 0 0.12219
0.964809 0 0.127077
1 0 0.138807
0 0.121212 0.117302
0 0.121212 0.11828
0.11828 0.11828 0.11828
0.266862 0.0997067 0.115347
0.428153 0.0508309 0.116325
0.567937 0 0.11828
0.741935 0 0.121212
0.963832 0 0.1261
1 0 0.13783
0 0.247312 0.110459
0 0.247312 0.110459
0 0.245357 0.110459
0.244379 0.240469 0.111437
0.416422 0.227761 0.112414
0.55914 0.210166 0.11437
0.735093 0.172043 0.117302
0.959922 0.0508309 0.12219
1 0 0.135875
0 0.391007 0.100684
0 0.391007 0.100684
0 0.391007 0.100684
0.184751 0.387097 0.101662
0.388074 0.380254 0.102639
0.538612 0.370479 0.104594
0.721408 0.352884 0.107527
0.950147 0.320626 0.113392
1 0 0.131965
0 0.515152 0.085044
0 0.515152 0.085044
0 0.514174 0.0860215
0 0.512219 0.0860215
0.346041 0.507331 0.0879765
0.512219 0.501466 0.0909091
0.702835 0.489736 0.0948192
0.935484 0.467253 0.100684
1 0 0.1261
0 0.672532 0.0459433
0 0.672532 0.0459433
0 0.672532 0.0459433
0 0.670577 0.0478983
0.252199 0.666667 0.0508309
0.459433 0.661779 0.0557185
0.667644 0.653959 0.0615836
0.911046 0.638319 0.0723363
1 0 0.116325
0 0.872923 0
0 0.872923 0
0 0.871945 0
0 0.870968 0
0 0.869013 0
0.344086 0.863148 0
0.591398 0.844575 0
0.832845 0.814272 0
1 0.337243 0.0987292
0 1 0
0 1 0
0 1 0
0 1 0
0 1 0
0 1 0
0 1 0
0 1 0
1 1 0
0 0 0.250244
0 0 0.246334
0.119257 0 0.246334
0.270772 0 0.243402
0.42913 0 0.241447
0.567937 0 0.242424
0.742913 0 0.244379
0.963832 0 0.246334
1 0 0.197458
0 0.0322581 0.244379
0 0.030303 0.244379
0.11828 0 0.247312
0.269795 0 0.243402
0.428153 0 0.241447
0.567937 0 0.242424
0.741935 0 0.244379
0.963832 0 0.246334
1 0 0.197458
0 0.120235 0.249267
0 0.119257 0.249267
0.103617 0.115347 0.246334
0.261975 0.0967742 0.240469
0.426197 0.0449658 0.241447
0.565982 0 0.242424
0.740958 0 0.243402
0.962854 0 0.245357
1 0 0.196481
0 0.246334 0.238514
0 0.246334 0.238514
0 0.244379 0.238514
0.239492 0.239492 0.239492
0.41349 0.226784 0.240469
0.557185 0.209189 0.241447
0.734115 0.171065 0.241447
0.958944 0.0449658 0.244379
1 0 0.195503
0 0.391007 0.235582
0 0.391007 0.235582
0 0.390029 0.235582
0.176931 0.387097 0.235582
0.385142 0.379277 0.236559
0.536657 0.369501 0.236559
0.72043 0.352884 0.238514
0.948192 0.319648 0.240469
1 0 0.191593
0 0.514174 0.230694
0 0.514174 0.230694
0 0.514174 0.230694
0 0.511241 0.230694
0.342131 0.507331 0.231672
0.510264 0.500489 0.232649
0.701857 0.488759 0.233627
0.934506 0.467253 0.235582
1 0 0.186706
0 0.672532 0.221896
0 0.672532 0.221896
0 0.672532 0.221896
0 0.670577 0.221896
0.247312 0.666667 0.221896
0.456501 0.661779 0.222874
0.666667 0.652981 0.224829
0.910068 0.638319 0.226784
1 0 0.178886
0 0.872923 0.204301
0 0.872923 0.204301
0 0.871945 0.204301
0 0.870968 0.204301
0 0.868035 0.205279
0.340176 0.86217 0.205279
0.589443 0.843597 0.204301
0.83089 0.813294 0.201369
1 0.337243 0.1652
0 1 0
0 1 0
0 1 0
0 1 0
0 1 0
0 1 0
0 1 0
0 1 0
1 1 0
0 0 0.391984
0 0 0.392962
0.0860215 0 0.392962
0.257087 0 0.380254
0.423265 0 0.381232
0.564027 0 0.382209
0.739003 0 0.383187
0.961877 0 0.384164
1 0 0.280547
0 0 0.392962
0 0 0.393939
0.0840665 0 0.391984
0.257087 0 0.380254
0.423265 0 0.381232
0.564027 0 0.382209
0.739003 0 0.383187
0.961877 0 0.384164
1 0 0.280547
0 0.112414 0.386119
0 0.112414 0.386119
0.0576735 0.108504 0.383187
0.252199 0.0909091 0.380254
0.420332 0.0254154 0.381232
0.562072 0 0.382209
0.738025 0 0.382209
0.960899 0 0.384164
1 0 0.27957
0 0.244379 0.379277
0 0.244379 0.379277
0 0.243402 0.379277
0.227761 0.237537 0.380254
0.407625 0.224829 0.380254
0.553275 0.206256 0.381232
0.731183 0.168133 0.381232
0.956989 0.0254154 0.383187
1 0 0.278592
0 0.390029 0.378299
0 0.390029 0.378299
0 0.389052 0.378299
0.159335 0.385142 0.378299
0.378299 0.378299 0.378299
0.531769 0.368524 0.378299
0.717498 0.351906 0.379277
0.946237 0.318671 0.381232
1 0 0.274682
0 0.514174 0.374389
0 0.513196 0.374389
0 0.513196 0.374389
0 0.511241 0.375367
0.335288 0.506354 0.375367
0.505376 0.500489 0.376344
0.698925 0.487781 0.377322
0.932551 0.466276 0.378299
1 0 0.269795
0 0.671554 0.370479
0 0.671554 0.370479
0 0.671554 0.370479
0 0.669599 0.370479
0.235582 0.666667 0.370479
0.451613 0.661779 0.371457
0.662757 0.652981 0.371457
0.908113 0.637341 0.373412
1 0 0.261975
0 0.871945 0.360704
0 0.871945 0.360704
0 0.871945 0.361681
0 0.870968 0.361681
0 0.868035 0.361681
0.331378 0.860215 0.360704
0.584555 0.841642 0.355816
0.826979 0.812317 0.348974
1 0.336266 0.250244
0 1 0
0 1 0
0 1 0
0 1 0
0 1 0
0 1 0
0 1 0
0 1 0
1 1 0
0 0 0.509286
0 0 0.508309
0 0 0.504399
0.243402 0 0.501466
0.415445 0 0.502444
0.558162 0 0.503421
0.735093 0 0.503421
0.958944 0 0.504399
1 0 0.357771
0 0 0.508309
0 0 0.507331
0 0 0.503421
0.242424 0 0.501466
0.415445 0 0.502444
0.558162 0 0.503421
0.735093 0 0.503421
0.958944 0 0.504399
1 0 0.356794
0 0.104594 0.501466
0 0.103617 0.501466
0 0.100684 0.501466
0.236559 0.0821114 0.501466
0.412512 0 0.502444
0.556207 0 0.503421
0.733138 0 0.503421
0.957967 0 0.504399
1 0 0.356794
0 0.241447 0.500489
0 0.241447 0.501466
0 0.240469 0.501466
0.210166 0.234604 0.501466
0.399805 0.221896 0.502444
0.54741 0.203324 0.502444
0.727273 0.164223 0.502444
0.954057 0 0.504399
1 0 0.354839
0 0.388074 0.500489
0 0.388074 0.500489
0 0.387097 0.500489
0.130987 0.384164 0.500489
0.369501 0.376344 0.500489
0.525904 0.366569 0.500489
0.713587 0.349951 0.501466
0.943304 0.316716 0.502444
1 0 0.350929
0 0.512219 0.497556
0 0.512219 0.497556
0 0.512219 0.497556
0 0.510264 0.497556
0.324536 0.505376 0.498534
0.499511 0.498534 0.498534
0.694037 0.486804 0.499511
0.929619 0.465298 0.500489
1 0 0.346041
0 0.671554 0.494624
0 0.671554 0.494624
0 0.670577 0.494624
0 0.669599 0.494624
0.219941 0.665689 0.494624
0.44477 0.660802 0.495601
0.658847 0.652004 0.495601
0.905181 0.637341 0.496579
1 0 0.338221
0 0.871945 0.487781
0 0.871945 0.487781
0 0.870968 0.488759
0 0.86999 0.488759
0 0.867058 0.488759
0.320626 0.85826 0.485826
0.57869 0.839687 0.478983
0.823069 0.810362 0.469208
1 0.335288 0.324536
0 1 0.142717
0 1 0.142717
0 1 0.142717
0 1 0.142717
0 1 0.142717
0 1 0.142717
0 1 0.142717
0 1 0.142717
1 1 0.138807
0 0 0.653959
0 0 0.653959
0 0 0.653959
0.215054 0 0.654936
0.40176 0 0.655914
0.549365 0 0.656892
0.72825 0 0.655914
0.954057 0 0.656892
1 0 0.457478
0 0 0.653959
0 0 0.653959
0 0 0.653959
0.214076 0 0.654936
0.40176 0 0.655914
0.548387 0 0.656892
0.72825 0 0.655914
0.954057 0 0.656892
1 0 0.457478
0 0.0909091 0.653959
0 0.0909091 0.653959
0 0.0860215 0.653959
0.208211 0.0635386 0.654936
0.398827 0 0.655914
0.546432 0 0.656892
0.726295 0 0.655914
0.953079 0 0.656892
1 0 0.456501
0 0.237537 0.654936
0 0.237537 0.654936
0 0.235582 0.654936
0.175953 0.230694 0.654936
0.385142 0.217009 0.655914
0.536657 0.197458 0.654936
0.719453 0.156403 0.654936
0.949169 0 0.656892
1 0 0.454545
0 0.385142 0.653959
0 0.385142 0.653959
0 0.385142 0.653959
0.0420332 0.381232 0.653959
0.352884 0.374389 0.653959
0.516129 0.364614 0.653959
0.705767 0.347019 0.654936
0.938416 0.313783 0.655914
1 0 0.449658
0 0.511241 0.652004
0 0.511241 0.652004
0 0.510264 0.652004
0 0.508309 0.652004
0.304985 0.503421 0.652981
0.487781 0.497556 0.652981
0.687195 0.484848 0.653959
0.923754 0.463343 0.653959
1 0 0.44477
0 0.669599 0.650049
0 0.669599 0.650049
0 0.669599 0.650049
0 0.667644 0.650049
0.186706 0.663734 0.650049
0.431085 0.658847 0.650049
0.651026 0.650049 0.651026
0.899316 0.635386 0.651026
1 0 0.434995
0 0.870968 0.645161
0 0.870968 0.645161
0 0.86999 0.645161
0 0.869013 0.645161
0 0.865103 0.645161
0.300098 0.85435 0.639296
0.567937 0.835777 0.630499
0.815249 0.807429 0.616813
1 0.334311 0.420332
0 1 0.251222
0 1 0.251222
0 1 0.251222
0 1 0.250244
0 1 0.250244
0 1 0.250244
0 1 0.249267
0 1 0.248289
1 1 0.224829
0 0 0.849462
0 0 0.849462
0 0 0.849462
0.151515 0 0.85044
0.376344 0 0.851417
0.530792 0 0.851417
0.715542 0 0.85044
0.946237 0 0.852395
1 0 0.585533
0 0 0.849462
0 0 0.849462
0 0 0.849462
0.150538 0 0.85044
0.375367 0 0.851417
0.530792 0 0.851417
0.715542 0 0.85044
0.945259 0 0.852395
1 0 0.585533
0 0.0596285 0.849462
0 0.058651 0.849462
0 0.0508309 0.849462
0.140762 0 0.85044
0.372434 0 0.851417
0.528837 0 0.851417
0.713587 0 0.85044
0.944282 0 0.852395
1 0 0.584555
0 0.229717 0.85044
0 0.229717 0.85044
0 0.227761 0.85044
0.0772239 0.221896 0.85044
0.357771 0.207234 0.85044
0.519062 0.186706 0.849462
0.707722 0.142717 0.85044
0.939394 0 0.851417
1 0 0.5826
0 0.380254 0.848485
0 0.380254 0.848485
0 0.380254 0.848485
0 0.376344 0.848485
0.321603 0.369501 0.848485
0.497556 0.359726 0.849462
0.694037 0.342131 0.85044
0.928641 0.307918 0.85044
1 0 0.576735
0 0.508309 0.848485
0 0.508309 0.848485
0 0.507331 0.848485
0 0.505376 0.848485
0.26784 0.500489 0.849462
0.467253 0.493646 0.849462
0.673509 0.481916 0.849462
0.914956 0.459433 0.849462
1 0 0.57087
0 0.667644 0.84653
0 0.667644 0.84653
0 0.666667 0.84653
0 0.665689 0.84653
0.102639 0.661779 0.84653
0.407625 0.656892 0.84653
0.636364 0.648094 0.84653
0.889541 0.633431 0.847507
1 0 0.55914
0 0.869013 0.843597
0 0.869013 0.843597
0 0.869013 0.843597
0 0.867058 0.84262
0 0.85826 0.837732
0.261975 0.847507 0.829912
0.549365 0.829912 0.819159
0.801564 0.801564 0.801564
1 0.331378 0.542522
0 1 0.361681
0 1 0.361681
0 1 0.361681
0 1 0.360704
0 1 0.360704
0 1 0.359726
0 1 0.358749
0 1 0.355816
1 1 0.316716
0 0 1
0 0 1
0 0 1
0 0 1
0 0 1
0 0 1
0.269795 0 1
0.678397 0 1
1 0 1
0 0 1
0 0 1
0 0 1
0 0 1
0 0 1
0 0 1
0.269795 0 1
0.678397 0 1
1 0 1
0 0 1
0 0 1
0 0 1
0 0 1
0 0 1
0 0 1
0.26393 0 1
0.676442 0 1
1 0 1
0 0 1
0 0 1
0 0 1
0 0 1
0 0 1
0 0 1
0.240469 0 1
0.664712 0 1
1 0 1
0 0.249267 1
0 0.249267 1
0 0.248289 1
0 0.241447 1
0 0.227761 1
0 0.208211 1
0.177908 0.171065 1
0.639296 0.0635386 1
1 0 1
0 0.415445 1
0 0.415445 1
0 0.414467 1
0 0.410557 1
0 0.402737 1
0 0.391007 1
0 0.371457 1
0.603128 0.333333 1
1 0 1
0 0.57478 1
0 0.573803 1
0 0.573803 1
0 0.568915 1
0 0.561095 1
0 0.550342 1
0 0.531769 1
0.544477 0.502444 1
1 0 1
0 0.721408 1
0 0.721408 1
0 0.72043 1
0 0.71652 1
0 0.709677 1
0 0.70088 1
0 0.686217 1
0.451613 0.660802 1
1 0.26784 1
0 1 1
0 1 1
0 1 1
0 1 1
0 1 1
0 1 1
0 1 1
0 1 1
1 0.999022 1
