proprietary/odm/etc/hdr3dlut_pq_qcom_grid_out_rgb.cube
LUT_3D_SIZE 17
0 0 0
0.0293255 0 0.00195503
0.0635386 0 0.00391007
0.100684 0 0.0058651
0.138807 0 0.00782014
0.184751 0 0.0107527
0.27957 0 0.0166178
0.374389 0 0.0224829
0.432063 0 0.0254154
0.496579 0 0.0293255
0.569892 0 0.0342131
0.652981 0 0.0391007
0.744868 0 0.0449658
0.847507 0 0.0508309
0.964809 0 0.0576735
1 0 0.105572
1 0 0.11828
0 0.026393 0
0.026393 0.026393 0
0.0606061 0.0205279 0.000977517
0.0997067 0 0.00488759
0.13783 0 0.00782014
0.184751 0 0.0107527
0.27957 0 0.0166178
0.374389 0 0.0224829
0.432063 0 0.0254154
0.496579 0 0.0293255
0.569892 0 0.0342131
0.652981 0 0.0391007
0.743891 0 0.0449658
0.847507 0 0.0508309
0.964809 0 0.0576735
1 0 0.105572
1 0 0.11828
0 0.0537634 0
0 0.0527859 0
0.0518084 0.0508309 0
0.0899316 0.0439883 0
0.131965 0.0293255 0.00391007
0.183773 0 0.00879765
0.278592 0 0.0156403
0.374389 0 0.0215054
0.432063 0 0.0254154
0.496579 0 0.0293255
0.569892 0 0.0332356
0.652004 0 0.0391007
0.743891 0 0.0439883
0.84653 0 0.0508309
0.964809 0 0.0576735
1 0 0.105572
1 0 0.11828
0 0.0791789 0
0 0.0791789 0
0.028348 0.0772239 0
0.0742913 0.0733138 0
0.129032 0.0684262 0
0.182796 0.0625611 0
0.27566 0.0293255 0.0117302
0.373412 0 0.0195503
0.431085 0 0.0234604
0.496579 0 0.0273705
0.569892 0 0.0322581
0.652004 0 0.0381232
0.743891 0 0.0439883
0.84653 0 0.0498534
0.964809 0 0.0576735
1 0 0.105572
1 0 0.11828
0 0.121212 0
0 0.121212 0
0 0.121212 0
0.054741 0.121212 0
0.12219 0.119257 0
0.175953 0.11437 0
0.26784 0.100684 0
0.370479 0.0772239 0.0127077
0.42913 0.0527859 0.0185728
0.494624 0 0.0244379
0.567937 0 0.0293255
0.651026 0 0.0351906
0.742913 0 0.0410557
0.845552 0 0.0478983
0.963832 0 0.0557185
1 0 0.104594
1 0 0.11828
0 0.166178 0
0 0.166178 0
0 0.166178 0
0 0.1652 0
0.102639 0.162268 0
0.162268 0.159335 0
0.262952 0.151515 0
0.367546 0.138807 0
0.426197 0.128055 0
0.492669 0.112414 0.0156403
0.565982 0.0860215 0.0234604
0.649071 0 0.030303
0.740958 0 0.0381232
0.844575 0 0.0449658
0.962854 0 0.0527859
1 0 0.103617
1 0 0.117302
0 0.247312 0
0 0.247312 0
0 0.247312 0
0 0.246334 0
0 0.246334 0
0.129032 0.244379 0
0.246334 0.240469 0
0.356794 0.233627 0
0.4174 0.227761 0
0.484848 0.220919 0
0.560117 0.210166 0
0.643206 0.195503 0
0.73607 0.173021 0.0224829
0.839687 0.136852 0.0342131
0.959922 0.0527859 0.0449658
1 0 0.100684
1 0 0.115347
0 0.339198 0
0 0.339198 0
0 0.339198 0
0 0.338221 0
0 0.338221 0
0 0.337243 0
0.214076 0.334311 0
0.337243 0.329423 0
0.40176 0.326491 0
0.471163 0.321603 0
0.548387 0.314761 0
0.632454 0.304985 0
0.727273 0.293255 0
0.833822 0.27566 0
0.954057 0.251222 0.0224829
1 0 0.0948192
1 0 0.113392
0 0.391984 0
0 0.391984 0
0 0.391007 0
0 0.391007 0
0 0.391007 0
0 0.390029 0
0.185728 0.387097 0
0.321603 0.383187 0
0.389052 0.380254 0
0.460411 0.376344 0
0.539589 0.370479 0
0.625611 0.362659 0
0.722385 0.352884 0
0.829912 0.340176 0
0.950147 0.320626 0
1 0 0.0909091
1 0 0.111437
0 0.449658 0
0 0.449658 0
0 0.449658 0
0 0.449658 0
0 0.44868 0
0 0.44868 0
0.13783 0.445748 0
0.29912 0.442815 0
0.371457 0.439883 0
0.446725 0.43695 0
0.527859 0.432063 0
0.616813 0.426197 0
0.714565 0.418377 0
0.823069 0.407625 0
0.944282 0.391984 0
1 0 0.085044
1 0 0.108504
0 0.515152 0
0 0.515152 0
0 0.515152 0
0 0.515152 0
0 0.514174 0
0 0.514174 0
0 0.512219 0
0.266862 0.509286 0
0.347019 0.507331 0
0.427175 0.504399 0
0.512219 0.501466 0
0.604106 0.496579 0
0.703812 0.489736 0
0.813294 0.479961 0
0.936461 0.467253 0
1 0.105572 0.0772239
1 0 0.104594
0 0.589443 0
0 0.589443 0
0 0.589443 0
0 0.589443 0
0 0.589443 0
0 0.588465 0
0 0.587488 0
0.214076 0.584555 0
0.31085 0.583578 0
0.400782 0.580645 0
0.490714 0.577713 0
0.58651 0.572825 0
0.68915 0.56696 0
0.800587 0.560117 0
0.925709 0.549365 0
1 0.276637 0.0654936
1 0 0.0997067
0 0.672532 0
0 0.672532 0
0 0.672532 0
0 0.672532 0
0 0.672532 0
0 0.672532 0
0 0.670577 0
0.0987292 0.668622 0
0.253177 0.667644 0
0.359726 0.664712 0
0.460411 0.662757 0
0.561095 0.658847 0
0.668622 0.653959 0
0.783969 0.647116 0
0.912023 0.638319 0
1 0.385142 0.0478983
1 0 0.0928641
0 0.766373 0
0 0.766373 0
0 0.766373 0
0 0.766373 0
0 0.766373 0
0 0.765396 0
0 0.764418 0
0 0.762463 0
0.136852 0.761486 0
0.297165 0.759531 0
0.415445 0.757576 0
0.526882 0.754643 0
0.641251 0.749756 0
0.761486 0.744868 0
0.888563 0.734115 0
1 0.480938 0
1 0.183773 0.0840665
0 0.872923 0
0 0.872923 0
0 0.872923 0
0 0.872923 0
0 0.872923 0
0 0.871945 0
0 0.870968 0
0 0.86999 0
0 0.869013 0
0.173021 0.867058 0
0.345064 0.863148 0
0.473118 0.855327 0
0.592375 0.844575 0
0.710655 0.83089 0
0.832845 0.814272 0
1 0.571847 0
1 0.337243 0.0703812
0 1 0
0 1 0
0 1 0
0 1 0
0 1 0
0 1 0
0 1 0
0 1 0
0 1 0
0 1 0
0 1 0
0 1 0
0 1 0
0 1 0
0 1 0
1 1 0
1 0.86999 0
0 1 0
0 1 0
0 1 0
0 1 0
0 1 0
0 1 0
0 1 0
0 1 0
0 1 0
0 1 0
0 1 0
0 1 0
0 1 0
0 1 0
0 1 0
0.662757 1 0
1 1 0
0 0 0.0234604
0.028348 0 0.0254154
0.0635386 0 0.0254154
0.100684 0 0.0234604
0.138807 0 0.0205279
0.184751 0 0.0215054
0.27957 0 0.0244379
0.374389 0 0.028348
0.432063 0 0.0312805
0.496579 0 0.0342131
0.569892 0 0.0381232
0.652981 0 0.0430108
0.744868 0 0.0478983
0.847507 0 0.0537634
0.964809 0 0.0606061
1 0 0.106549
1 0 0.119257
0 0.026393 0.0254154
0.0254154 0.0254154 0.0254154
0.0606061 0.0205279 0.0244379
0.0987292 0 0.0234604
0.13783 0 0.0205279
0.184751 0 0.0215054
0.27957 0 0.0244379
0.374389 0 0.028348
0.432063 0 0.0312805
0.496579 0 0.0342131
0.569892 0 0.0381232
0.652981 0 0.0420332
0.743891 0 0.0478983
0.847507 0 0.0537634
0.964809 0 0.0606061
1 0 0.106549
1 0 0.119257
0 0.0537634 0.0224829
0 0.0527859 0.0224829
0.0518084 0.0508309 0.0215054
0.0899316 0.0439883 0.0205279
0.131965 0.0293255 0.0195503
0.183773 0 0.0205279
0.277615 0 0.0234604
0.374389 0 0.0273705
0.432063 0 0.030303
0.496579 0 0.0342131
0.569892 0 0.0381232
0.652004 0 0.0420332
0.743891 0 0.0469208
0.84653 0 0.0527859
0.964809 0 0.0596285
1 0 0.106549
1 0 0.119257
0 0.0791789 0.0166178
0 0.0782014 0.0156403
0.028348 0.0772239 0.0156403
0.0742913 0.0733138 0.0156403
0.129032 0.0684262 0.0166178
0.182796 0.0625611 0.0185728
0.27566 0.0293255 0.0215054
0.373412 0 0.026393
0.431085 0 0.0293255
0.496579 0 0.0322581
0.569892 0 0.0371457
0.652004 0 0.0410557
0.743891 0 0.0469208
0.84653 0 0.0527859
0.964809 0 0.0596285
1 0 0.106549
1 0 0.11828
0 0.121212 0
0 0.121212 0
0 0.121212 0
0.054741 0.121212 0.00293255
0.12219 0.119257 0.00684262
0.175953 0.11437 0.00977517
0.26784 0.100684 0.0156403
0.370479 0.0772239 0.0224829
0.42913 0.0527859 0.0254154
0.494624 0 0.0293255
0.567937 0 0.0342131
0.651026 0 0.0391007
0.742913 0 0.0449658
0.845552 0 0.0508309
0.963832 0 0.0576735
1 0 0.105572
1 0 0.11828
0 0.166178 0
0 0.166178 0
0 0.166178 0
0 0.1652 0
0.102639 0.162268 0
0.162268 0.159335 0
0.262952 0.151515 0
0.367546 0.138807 0.0117302
0.426197 0.128055 0.0175953
0.491691 0.112414 0.0234604
0.565982 0.0860215 0.0293255
0.649071 0 0.0351906
0.740958 0 0.0410557
0.844575 0 0.0478983
0.962854 0 0.0557185
1 0 0.104594
1 0 0.11828
0 0.247312 0
0 0.247312 0
0 0.247312 0
0 0.246334 0
0 0.246334 0
0.129032 0.244379 0
0.245357 0.240469 0
0.356794 0.233627 0
0.4174 0.227761 0
0.484848 0.220919 0
0.560117 0.210166 0
0.643206 0.195503 0.0166178
0.73607 0.173021 0.028348
0.839687 0.136852 0.0381232
0.959922 0.0527859 0.0478983
1 0 0.100684
1 0 0.116325
0 0.339198 0
0 0.339198 0
0 0.339198 0
0 0.338221 0
0 0.338221 0
0 0.337243 0
0.214076 0.334311 0
0.337243 0.329423 0
0.40176 0.326491 0
0.471163 0.321603 0
0.548387 0.314761 0
0.632454 0.304985 0
0.727273 0.293255 0
0.833822 0.27566 0
0.954057 0.251222 0.028348
1 0 0.0957967
1 0 0.113392
0 0.391984 0
0 0.391007 0
0 0.391007 0
0 0.391007 0
0 0.391007 0
0 0.390029 0
0.185728 0.387097 0
0.321603 0.383187 0
0.389052 0.380254 0
0.460411 0.376344 0
0.539589 0.370479 0
0.625611 0.362659 0
0.722385 0.352884 0
0.829912 0.340176 0
0.950147 0.320626 0
1 0 0.0918866
1 0 0.111437
0 0.449658 0
0 0.449658 0
0 0.449658 0
0 0.449658 0
0 0.44868 0
0 0.44868 0
0.13783 0.445748 0
0.29912 0.442815 0
0.371457 0.439883 0
0.446725 0.43695 0
0.527859 0.432063 0
0.616813 0.426197 0
0.714565 0.418377 0
0.823069 0.407625 0
0.944282 0.391984 0
1 0 0.0860215
1 0 0.108504
0 0.515152 0
0 0.515152 0
0 0.515152 0
0 0.515152 0
0 0.514174 0
0 0.514174 0
0 0.512219 0
0.266862 0.509286 0
0.347019 0.507331 0
0.427175 0.504399 0
0.512219 0.501466 0
0.604106 0.496579 0
0.703812 0.489736 0
0.813294 0.479961 0
0.936461 0.467253 0
1 0.105572 0.0782014
1 0 0.105572
0 0.589443 0
0 0.589443 0
0 0.589443 0
0 0.589443 0
0 0.589443 0
0 0.588465 0
0 0.587488 0
0.214076 0.584555 0
0.31085 0.583578 0
0.400782 0.580645 0
0.490714 0.577713 0
0.58651 0.572825 0
0.68915 0.56696 0
0.800587 0.55914 0
0.925709 0.549365 0
1 0.276637 0.0674487
1 0 0.0997067
0 0.672532 0
0 0.672532 0
0 0.672532 0
0 0.672532 0
0 0.672532 0
0 0.672532 0
0 0.670577 0
0.0987292 0.668622 0
0.253177 0.667644 0
0.359726 0.664712 0
0.460411 0.662757 0
0.561095 0.658847 0
0.668622 0.653959 0
0.783969 0.647116 0
0.912023 0.638319 0
1 0.385142 0.0488759
1 0 0.0938416
0 0.766373 0
0 0.766373 0
0 0.766373 0
0 0.766373 0
0 0.766373 0
0 0.765396 0
0 0.764418 0
0 0.762463 0
0.136852 0.761486 0
0.297165 0.759531 0
0.415445 0.757576 0
0.526882 0.754643 0
0.641251 0.749756 0
0.761486 0.744868 0
0.888563 0.734115 0
1 0.480938 0
1 0.183773 0.0840665
0 0.872923 0
0 0.872923 0
0 0.872923 0
0 0.872923 0
0 0.872923 0
0 0.871945 0
0 0.870968 0
0 0.86999 0
0 0.869013 0
0.173021 0.867058 0
0.345064 0.863148 0
0.473118 0.855327 0
0.592375 0.844575 0
0.710655 0.83089 0
0.832845 0.814272 0
1 0.571847 0
1 0.337243 0.0703812
0 1 0
0 1 0
0 1 0
0 1 0
0 1 0
0 1 0
0 1 0
0 1 0
0 1 0
0 1 0
0 1 0
0 1 0
0 1 0
0 1 0
0 1 0
1 1 0
1 0.86999 0
0 1 0
0 1 0
0 1 0
0 1 0
0 1 0
0 1 0
0 1 0
0 1 0
0 1 0
0 1 0
0 1 0
0 1 0
0 1 0
0 1 0
0 1 0
0.662757 1 0
1 1 0
0 0 0.056696
0.0254154 0 0.0576735
0.0615836 0 0.0557185
0.0997067 0 0.0508309
0.13783 0 0.0439883
0.184751 0 0.0430108
0.27957 0 0.0449658
0.374389 0 0.0459433
0.432063 0 0.0478983
0.496579 0 0.0498534
0.569892 0 0.0518084
0.652981 0 0.0557185
0.743891 0 0.0596285
0.847507 0 0.0635386
0.964809 0 0.0694037
1 0 0.110459
1 0 0.121212
0 0.026393 0.0576735
0.0215054 0.0244379 0.056696
0.058651 0.0195503 0.0537634
0.0977517 0 0.0508309
0.136852 0 0.0439883
0.184751 0 0.0430108
0.278592 0 0.0449658
0.374389 0 0.0459433
0.432063 0 0.0478983
0.496579 0 0.0498534
0.569892 0 0.0518084
0.652981 0 0.0557185
0.743891 0 0.0596285
0.847507 0 0.0635386
0.964809 0 0.0694037
1 0 0.110459
1 0 0.121212
0 0.0527859 0.0518084
0 0.0527859 0.0508309
0.0498534 0.0498534 0.0498534
0.0889541 0.0430108 0.0469208
0.131965 0.028348 0.0420332
0.183773 0 0.0430108
0.277615 0 0.0439883
0.374389 0 0.0459433
0.432063 0 0.0469208
0.496579 0 0.0488759
0.569892 0 0.0518084
0.652004 0 0.054741
0.743891 0 0.058651
0.84653 0 0.0635386
0.964809 0 0.0694037
1 0 0.110459
1 0 0.121212
0 0.0782014 0.0430108
0 0.0782014 0.0430108
0.026393 0.0762463 0.0420332
0.0733138 0.0723363 0.0410557
0.129032 0.0684262 0.0410557
0.182796 0.0615836 0.0420332
0.274682 0.0293255 0.0430108
0.373412 0 0.0449658
0.431085 0 0.0469208
0.496579 0 0.0488759
0.569892 0 0.0508309
0.652004 0 0.054741
0.743891 0 0.058651
0.84653 0 0.0635386
0.964809 0 0.0684262
1 0 0.109482
1 0 0.120235
0 0.121212 0.0391007
0 0.121212 0.0391007
0 0.121212 0.0391007
0.054741 0.121212 0.0391007
0.121212 0.119257 0.0391007
0.175953 0.11437 0.0400782
0.26784 0.100684 0.0400782
0.370479 0.0772239 0.0430108
0.42913 0.0527859 0.0449658
0.494624 0 0.0469208
0.567937 0 0.0498534
0.651026 0 0.0527859
0.742913 0 0.056696
0.845552 0 0.0615836
0.963832 0 0.0674487
1 0 0.109482
1 0 0.120235
0 0.166178 0.0342131
0 0.166178 0.0342131
0 0.166178 0.0342131
0 0.1652 0.0342131
0.102639 0.162268 0.0342131
0.162268 0.159335 0.0351906
0.262952 0.151515 0.0361681
0.367546 0.138807 0.0391007
0.426197 0.128055 0.0410557
0.491691 0.112414 0.0439883
0.565982 0.0860215 0.0469208
0.649071 0 0.0498534
0.740958 0 0.054741
0.844575 0 0.0596285
0.962854 0 0.0654936
1 0 0.108504
1 0 0.120235
0 0.247312 0.0127077
0 0.247312 0.0127077
0 0.247312 0.0136852
0 0.246334 0.0136852
0 0.246334 0.0146628
0.129032 0.244379 0.0166178
0.245357 0.240469 0.0205279
0.356794 0.233627 0.0254154
0.4174 0.227761 0.028348
0.484848 0.220919 0.0322581
0.560117 0.210166 0.0361681
0.643206 0.195503 0.0410557
0.73607 0.173021 0.0459433
0.839687 0.136852 0.0518084
0.959922 0.0527859 0.0596285
1 0 0.104594
1 0 0.11828
0 0.339198 0
0 0.339198 0
0 0.339198 0
0 0.338221 0
0 0.338221 0
0 0.337243 0
0.214076 0.334311 0
0.337243 0.329423 0
0.40176 0.326491 0
0.471163 0.321603 0
0.548387 0.314761 0
0.632454 0.304985 0.0117302
0.727273 0.293255 0.0254154
0.833822 0.27566 0.0361681
0.954057 0.251222 0.0459433
1 0 0.0997067
1 0 0.115347
0 0.391984 0
0 0.391007 0
0 0.391007 0
0 0.391007 0
0 0.391007 0
0 0.390029 0
0.185728 0.387097 0
0.321603 0.383187 0
0.389052 0.380254 0
0.460411 0.376344 0
0.539589 0.370479 0
0.625611 0.362659 0
0.722385 0.352884 0
0.829912 0.340176 0.0127077
0.950147 0.320626 0.0322581
1 0 0.0957967
1 0 0.113392
0 0.449658 0
0 0.449658 0
0 0.449658 0
0 0.449658 0
0 0.44868 0
0 0.44868 0
0.13783 0.445748 0
0.29912 0.442815 0
0.371457 0.439883 0
0.446725 0.43695 0
0.527859 0.432063 0
0.616813 0.426197 0
0.714565 0.418377 0
0.823069 0.407625 0
0.944282 0.391984 0
1 0 0.0909091
1 0 0.110459
0 0.515152 0
0 0.515152 0
0 0.515152 0
0 0.515152 0
0 0.514174 0
0 0.514174 0
0 0.512219 0
0.266862 0.509286 0
0.347019 0.507331 0
0.427175 0.504399 0
0.512219 0.501466 0
0.604106 0.496579 0
0.703812 0.489736 0
0.813294 0.479961 0
0.936461 0.467253 0
1 0.105572 0.083089
1 0 0.107527
0 0.589443 0
0 0.589443 0
0 0.589443 0
0 0.589443 0
0 0.589443 0
0 0.588465 0
0 0.587488 0
0.214076 0.584555 0
0.31085 0.583578 0
0.399805 0.580645 0
0.490714 0.577713 0
0.58651 0.572825 0
0.68915 0.56696 0
0.800587 0.55914 0
0.925709 0.549365 0
1 0.276637 0.0723363
1 0 0.102639
0 0.672532 0
0 0.672532 0
0 0.672532 0
0 0.672532 0
0 0.672532 0
0 0.672532 0
0 0.670577 0
0.0987292 0.668622 0
0.253177 0.667644 0
0.359726 0.664712 0
0.459433 0.662757 0
0.561095 0.658847 0
0.668622 0.653959 0
0.783969 0.647116 0
0.912023 0.638319 0
1 0.385142 0.056696
1 0 0.0957967
0 0.766373 0
0 0.766373 0
0 0.766373 0
0 0.766373 0
0 0.766373 0
0 0.765396 0
0 0.764418 0
0 0.762463 0
0.135875 0.761486 0
0.297165 0.759531 0
0.415445 0.757576 0
0.526882 0.754643 0
0.641251 0.749756 0
0.761486 0.744868 0
0.888563 0.734115 0
1 0.480938 0.0215054
1 0.183773 0.086999
0 0.872923 0
0 0.872923 0
0 0.872923 0
0 0.872923 0
0 0.872923 0
0 0.871945 0
0 0.870968 0
0 0.86999 0
0 0.869013 0
0.173021 0.867058 0
0.344086 0.863148 0
0.473118 0.855327 0
0.592375 0.844575 0
0.710655 0.83089 0
0.832845 0.814272 0
1 0.571847 0
1 0.337243 0.0733138
0 1 0
0 1 0
0 1 0
0 1 0
0 1 0
0 1 0
0 1 0
0 1 0
0 1 0
0 1 0
0 1 0
0 1 0
0 1 0
0 1 0
0 1 0
1 1 0
1 0.86999 0
0 1 0
0 1 0
0 1 0
0 1 0
0 1 0
0 1 0
0 1 0
0 1 0
0 1 0
0 1 0
0 1 0
0 1 0
0 1 0
0 1 0
0 1 0
0.662757 1 0
1 1 0
0 0 0.0997067
0.0117302 0 0.0977517
0.056696 0 0.0928641
0.0967742 0 0.086999
0.135875 0 0.0752688
0.183773 0 0.0733138
0.278592 0 0.0742913
0.374389 0 0.0742913
0.432063 0 0.0752688
0.496579 0 0.0762463
0.569892 0 0.0782014
0.652981 0 0.0801564
0.743891 0 0.0821114
0.847507 0 0.0860215
0.964809 0 0.0899316
1 0 0.120235
1 0 0.1261
0 0.0234604 0.0957967
0 0.0224829 0.0948192
0.054741 0.0175953 0.0918866
0.0948192 0 0.085044
0.134897 0 0.0742913
0.183773 0 0.0733138
0.278592 0 0.0742913
0.374389 0 0.0742913
0.432063 0 0.0752688
0.496579 0 0.0762463
0.569892 0 0.0782014
0.652004 0 0.0801564
0.743891 0 0.0821114
0.84653 0 0.0860215
0.964809 0 0.0899316
1 0 0.120235
