proprietary/odm/etc/camera/filters_lut/dolby_preview_3dlut.cube
#Created by : Dolby Laboratories
#Copyright: (C) Copyright 2022 Dolby Laboratories
#is_rgb_input 1
#is_rgb_output 1
#input_offset 0.000000
#shape_order 1.000000
#format 6
# MaxLuma:1000.00 MinLuma:0.00010 Eotf=Gamma
#LUT Size
LUT_3D_SIZE 5
#data domain
DOMAIN_MIN 0 0 0
DOMAIN_MAX 1.0 1.0 1.0
#LUT data points
0.0000000000 0.0009775171 0.0009775171
0.1466275603 0.0000000000 0.0097751711
0.3000977635 0.0000000000 0.0244379286
0.5298142433 0.0000000000 0.0518084057
0.9257087111 0.0000000000 0.1075268835
0.0000000000 0.1505376399 0.0000000000
0.1534701884 0.1515151560 0.0000000000
0.3264907002 0.1476050764 0.0000000000
0.5659824014 0.1221896410 0.0400782004
0.9579667449 0.0557184741 0.1026392952
0.0000000000 0.3196480870 0.0000000000
0.0928641260 0.3225806355 0.0000000000
0.3264907002 0.3225806355 0.0000000000
0.5972629786 0.3088954091 0.0000000000
1.0000000000 0.2512218952 0.0830889568
0.0000000000 0.5718474984 0.0000000000
0.0000000000 0.5738025308 0.0000000000
0.2394916862 0.5747800469 0.0000000000
0.5738025308 0.5689149499 0.0000000000
1.0000000000 0.5131964684 0.0000000000
0.0000000000 1.0000000000 0.0000000000
0.0000000000 1.0000000000 0.0000000000
0.0000000000 1.0000000000 0.0000000000
0.3352883756 1.0000000000 0.0000000000
1.0000000000 0.9931573868 0.0000000000
0.0000000000 0.0107526882 0.1133919880
0.1495601237 0.0000000000 0.1358748823
0.3098729253 0.0000000000 0.1515151560
0.5474095941 0.0000000000 0.1671554297
0.9501466155 0.0000000000 0.1886608005
0.0000000000 0.1515151560 0.1466275603
0.1515151560 0.1524926722 0.1524926722
0.3294232786 0.1476050764 0.1612903178
0.5786901116 0.1163245365 0.1710654944
0.9814271927 0.0000000000 0.1876832843
0.0000000000 0.3235581517 0.1622678339
0.0811339170 0.3255131841 0.1642228812
0.3264907002 0.3245356679 0.1671554297
0.6041055918 0.3108504415 0.1720430106
1.0000000000 0.2453567982 0.1847507358
0.0000000000 0.5786901116 0.1554252207
0.0000000000 0.5796676278 0.1554252207
0.2355816215 0.5796676278 0.1554252207
0.5767350793 0.5718474984 0.1564027369
1.0000000000 0.5151515007 0.1652003974
0.0000000000 1.0000000000 0.0391006842
0.0000000000 1.0000000000 0.0361681320
0.0000000000 1.0000000000 0.0234604105
0.3323558271 1.0000000000 0.0000000000
1.0000000000 0.9970674515 0.0000000000
0.0000000000 0.0263929628 0.2365591377
0.1476050764 0.0000000000 0.2619745731
0.3176930547 0.0000000000 0.2873900235
0.5650048852 0.0000000000 0.3069403768
0.9824047089 0.0000000000 0.3157380223
0.0000000000 0.1534701884 0.2785923779
0.1417399794 0.1534701884 0.2893450558
0.3294232786 0.1476050764 0.3059628606
0.5884652734 0.1085043997 0.3186705709
1.0000000000 0.0000000000 0.3206256032
0.0000000000 0.3245356679 0.3147605062
0.0430107526 0.3255131841 0.3176930547
0.3225806355 0.3245356679 0.3245356679
0.6060606241 0.3108504415 0.3313783109
1.0000000000 0.2365591377 0.3274682164
0.0000000000 0.5816226602 0.3274682164
0.0000000000 0.5826001763 0.3284457624
0.2267839760 0.5826001763 0.3294232786
0.5767350793 0.5738025308 0.3304007947
1.0000000000 0.5180840492 0.3274682164
0.0000000000 1.0000000000 0.2913000882
0.0000000000 1.0000000000 0.2903225720
0.0000000000 1.0000000000 0.2903225720
0.3264907002 1.0000000000 0.2883675396
1.0000000000 1.0000000000 0.2834799588
0.0000000000 0.0537634417 0.4389051795
0.1202346012 0.0000000000 0.4692082107
0.3186705709 0.0000000000 0.5053763390
0.5835776925 0.0000000000 0.5288367271
1.0000000000 0.0000000000 0.5210165977
0.0000000000 0.1612903178 0.4799608886
0.0997067466 0.1593352854 0.4985337257
0.3206256032 0.1476050764 0.5239491463
0.5943304300 0.0967741907 0.5425220132
1.0000000000 0.0000000000 0.5307917595
0.0000000000 0.3245356679 0.5317693353
0.0000000000 0.3255131841 0.5395894647
0.3069403768 0.3235581517 0.5503421426
0.6001955271 0.3088954091 0.5620723367
1.0000000000 0.2248289287 0.5483871102
0.0000000000 0.5806451440 0.5640273690
0.0000000000 0.5816226602 0.5650048852
0.1984359771 0.5806451440 0.5689149499
0.5679374337 0.5708699822 0.5708699822
1.0000000000 0.5180840492 0.5620723367
0.0000000000 1.0000000000 0.5425220132
0.0000000000 1.0000000000 0.5425220132
0.0000000000 1.0000000000 0.5425220132
0.3088954091 1.0000000000 0.5415444970
1.0000000000 1.0000000000 0.5337243676
0.0000000000 0.1260997057 0.8758553267
0.0000000000 0.1006842628 0.9051808119
0.2570869923 0.0000000000 0.9530791640
0.5738025308 0.0000000000 0.9941349030
1.0000000000 0.0000000000 0.9745845795
0.0000000000 0.1964809448 0.9022482634
0.0000000000 0.1867057681 0.9257087111
0.2492668629 0.1612903178 0.9657868743
0.5718474984 0.0830889568 1.0000000000
1.0000000000 0.0000000000 0.9833822250
0.0000000000 0.3313783109 0.9530791640
0.0000000000 0.3304007947 0.9667643905
0.2140762508 0.3245356679 0.9921798706
0.5650048852 0.3040078282 1.0000000000
1.0000000000 0.2033235580 1.0000000000
0.0000000000 0.5708699822 1.0000000000
0.0000000000 0.5718474984 1.0000000000
0.0000000000 0.5708699822 1.0000000000
0.5229716301 0.5630498528 1.0000000000
1.0000000000 0.5102639198 1.0000000000
0.0000000000 1.0000000000 1.0000000000
0.0000000000 1.0000000000 1.0000000000
0.0000000000 1.0000000000 1.0000000000
0.2199413478 1.0000000000 1.0000000000
0.9921798706 0.9980449677 0.9970674515
