proprietary/odm/etc/camera/filters_lut/dolby_preview_3dlut.cube
#Created by : Dolby Laboratories
#Copyright: (C) Copyright 2022 Dolby Laboratories
#is_rgb_input 1
#is_rgb_output 1
#input_offset 0.000000
#shape_order 1.000000
#format 6
# MaxLuma:1000.00 MinLuma:0.00010 Eotf=Gamma
#LUT Size
LUT_3D_SIZE 33
#data domain
DOMAIN_MIN 0 0 0
DOMAIN_MAX 1.0 1.0 1.0
#LUT data points
0.0000000000 0.0009775171 0.0009775171
0.0166177917 0.0000000000 0.0000000000
0.0342130996 0.0000000000 0.0019550342
0.0518084057 0.0000000000 0.0029325513
0.0713587478 0.0000000000 0.0039100684
0.0899315774 0.0000000000 0.0048875855
0.1085043997 0.0000000000 0.0068426197
0.1280547380 0.0000000000 0.0078201368
0.1466275603 0.0000000000 0.0097751711
0.1661779135 0.0000000000 0.0117302053
0.1857282519 0.0000000000 0.0127077224
0.2043010741 0.0000000000 0.0146627566
0.2238514125 0.0000000000 0.0166177917
0.2434017658 0.0000000000 0.0185728259
0.2619745731 0.0000000000 0.0205278601
0.2815249264 0.0000000000 0.0224828944
0.3000977635 0.0000000000 0.0244379286
0.3206256032 0.0000000000 0.0263929628
0.3431085050 0.0000000000 0.0293255132
0.3675464392 0.0000000000 0.0322580636
0.3949169219 0.0000000000 0.0351906158
0.4252199531 0.0000000000 0.0391006842
0.4574780166 0.0000000000 0.0430107526
0.4926686287 0.0000000000 0.0469208211
0.5298142433 0.0000000000 0.0518084057
0.5698924661 0.0000000000 0.0576735102
0.6119257212 0.0000000000 0.0625610948
0.6578690410 0.0000000000 0.0694037154
0.7057673335 0.0000000000 0.0762463361
0.7565982342 0.0000000000 0.0830889568
0.8093841672 0.0000000000 0.0909090936
0.8660801649 0.0000000000 0.0997067466
0.9257087111 0.0000000000 0.1075268835
0.0000000000 0.0156402737 0.0000000000
0.0156402737 0.0156402737 0.0000000000
0.0342130996 0.0156402737 0.0000000000
0.0527859256 0.0136852395 0.0009775171
0.0713587478 0.0087976540 0.0029325513
0.0899315774 0.0000000000 0.0048875855
0.1094819158 0.0000000000 0.0058651026
0.1280547380 0.0000000000 0.0078201368
0.1476050764 0.0000000000 0.0087976540
0.1671554297 0.0000000000 0.0107526882
0.1857282519 0.0000000000 0.0127077224
0.2052785903 0.0000000000 0.0146627566
0.2248289287 0.0000000000 0.0166177917
0.2434017658 0.0000000000 0.0185728259
0.2629520893 0.0000000000 0.0205278601
0.2825024426 0.0000000000 0.0224828944
0.3010752797 0.0000000000 0.0244379286
0.3216031194 0.0000000000 0.0263929628
0.3440860212 0.0000000000 0.0293255132
0.3685239553 0.0000000000 0.0312805474
0.3958944380 0.0000000000 0.0351906158
0.4261974692 0.0000000000 0.0381231681
0.4584555328 0.0000000000 0.0430107526
0.4926686287 0.0000000000 0.0469208211
0.5307917595 0.0000000000 0.0518084057
0.5708699822 0.0000000000 0.0566959940
0.6129032373 0.0000000000 0.0625610948
0.6578690410 0.0000000000 0.0694037154
0.7057673335 0.0000000000 0.0762463361
0.7565982342 0.0000000000 0.0830889568
0.8103616834 0.0000000000 0.0909090936
0.8660801649 0.0000000000 0.0987292305
0.9257087111 0.0000000000 0.1075268835
0.0000000000 0.0332355835 0.0000000000
0.0097751711 0.0332355835 0.0000000000
0.0342130996 0.0332355835 0.0000000000
0.0527859256 0.0332355835 0.0000000000
0.0723362640 0.0322580636 0.0000000000
0.0918866098 0.0312805474 0.0000000000
0.1104594320 0.0283479970 0.0029325513
0.1300097704 0.0254154447 0.0048875855
0.1495601237 0.0205278601 0.0068426197
0.1691104621 0.0107526882 0.0087976540
0.1876832843 0.0000000000 0.0107526882
0.2072336227 0.0000000000 0.0127077224
0.2267839760 0.0000000000 0.0146627566
0.2463343143 0.0000000000 0.0166177917
0.2649071217 0.0000000000 0.0195503421
0.2844574749 0.0000000000 0.0215053763
0.3040078282 0.0000000000 0.0234604105
0.3235581517 0.0000000000 0.0254154447
0.3460410535 0.0000000000 0.0283479970
0.3714565039 0.0000000000 0.0312805474
0.3988269866 0.0000000000 0.0342130996
0.4281525016 0.0000000000 0.0381231681
0.4604105651 0.0000000000 0.0420332365
0.4956011772 0.0000000000 0.0469208211
0.5327468514 0.0000000000 0.0508308895
0.5728250146 0.0000000000 0.0566959940
0.6148582697 0.0000000000 0.0625610948
0.6598240733 0.0000000000 0.0694037154
0.7077223659 0.0000000000 0.0762463361
0.7585532665 0.0000000000 0.0830889568
0.8123167157 0.0000000000 0.0909090936
0.8680351973 0.0000000000 0.0987292305
0.9276637435 0.0000000000 0.1075268835
0.0000000000 0.0518084057 0.0000000000
0.0000000000 0.0518084057 0.0000000000
0.0303030312 0.0518084057 0.0000000000
0.0527859256 0.0518084057 0.0000000000
0.0733137801 0.0518084057 0.0000000000
0.0928641260 0.0508308895 0.0000000000
0.1124144644 0.0508308895 0.0000000000
0.1319648027 0.0488758571 0.0000000000
0.1515151560 0.0469208211 0.0000000000
0.1710654944 0.0449657887 0.0048875855
0.1906158328 0.0420332365 0.0078201368
0.2101661712 0.0381231681 0.0107526882
0.2297165245 0.0332355835 0.0127077224
0.2492668629 0.0273704790 0.0146627566
0.2688172162 0.0166177917 0.0175953079
0.2883675396 0.0000000000 0.0195503421
0.3069403768 0.0000000000 0.0215053763
0.3274682164 0.0000000000 0.0244379286
0.3499511182 0.0000000000 0.0263929628
0.3743890524 0.0000000000 0.0293255132
0.4027370512 0.0000000000 0.0332355835
0.4320625663 0.0000000000 0.0371456519
0.4643206298 0.0000000000 0.0410557203
0.4995112419 0.0000000000 0.0459433049
0.5366569161 0.0000000000 0.0508308895
0.5767350793 0.0000000000 0.0557184741
0.6187683344 0.0000000000 0.0615835786
0.6637341380 0.0000000000 0.0684261993
0.7116324306 0.0000000000 0.0752688199
0.7614858150 0.0000000000 0.0821114406
0.8152492642 0.0000000000 0.0899315774
0.8709677458 0.0000000000 0.0987292305
0.9305962920 0.0000000000 0.1065493673
0.0000000000 0.0703812316 0.0000000000
0.0000000000 0.0703812316 0.0000000000
0.0205278601 0.0713587478 0.0000000000
0.0488758571 0.0713587478 0.0000000000
0.0723362640 0.0713587478 0.0000000000
0.0928641260 0.0713587478 0.0000000000
0.1133919880 0.0713587478 0.0000000000
0.1329423338 0.0703812316 0.0000000000
0.1534701884 0.0694037154 0.0000000000
0.1730205268 0.0684261993 0.0000000000
0.1935483813 0.0664711669 0.0000000000
0.2130987346 0.0645161271 0.0029325513
0.2326490730 0.0615835786 0.0078201368
0.2531769276 0.0586510263 0.0117302053
0.2727272809 0.0557184741 0.0136852395
0.2913000882 0.0518084057 0.0166177917
0.3108504415 0.0478983372 0.0195503421
0.3313783109 0.0420332365 0.0215053763
0.3538611829 0.0351906158 0.0244379286
0.3792766333 0.0224828944 0.0283479970
0.4066471159 0.0000000000 0.0312805474
0.4369501472 0.0000000000 0.0351906158
0.4692082107 0.0000000000 0.0400782004
0.5043988228 0.0000000000 0.0439882688
0.5415444970 0.0000000000 0.0488758571
0.5806451440 0.0000000000 0.0547409579
0.6236559153 0.0000000000 0.0606060624
0.6686217189 0.0000000000 0.0674486831
0.7155424953 0.0000000000 0.0742913038
0.7663733959 0.0000000000 0.0821114406
0.8191593289 0.0000000000 0.0899315774
0.8758553267 0.0000000000 0.0977517143
0.9345063567 0.0000000000 0.1065493673
0.0000000000 0.0899315774 0.0000000000
0.0000000000 0.0899315774 0.0000000000
0.0000000000 0.0899315774 0.0000000000
0.0430107526 0.0909090936 0.0000000000
0.0694037154 0.0909090936 0.0000000000
0.0918866098 0.0909090936 0.0000000000
0.1133919880 0.0909090936 0.0000000000
0.1339198500 0.0909090936 0.0000000000
0.1544477046 0.0899315774 0.0000000000
0.1749755591 0.0899315774 0.0000000000
0.1955034286 0.0889540538 0.0000000000
0.2160312831 0.0869990215 0.0000000000
0.2355816215 0.0860215053 0.0000000000
0.2561094761 0.0840664729 0.0000000000
0.2756598294 0.0821114406 0.0078201368
0.2952101529 0.0801564008 0.0117302053
0.3157380223 0.0772238523 0.0156402737
0.3362658918 0.0742913038 0.0185728259
0.3587487638 0.0703812316 0.0215053763
0.3841642141 0.0654936433 0.0254154447
0.4125122130 0.0596285425 0.0293255132
0.4428152442 0.0508308895 0.0332355835
0.4750733078 0.0400782004 0.0371456519
0.5092864037 0.0215053763 0.0420332365
0.5474095941 0.0000000000 0.0478983372
0.5865102410 0.0000000000 0.0527859256
0.6295210123 0.0000000000 0.0596285425
0.6735092998 0.0000000000 0.0664711669
0.7214076519 0.0000000000 0.0733137801
0.7712609768 0.0000000000 0.0811339170
0.8250244260 0.0000000000 0.0889540538
0.8807429075 0.0000000000 0.0967741907
0.9393939376 0.0000000000 0.1055718511
0.0000000000 0.1094819158 0.0000000000
0.0000000000 0.1094819158 0.0000000000
0.0000000000 0.1104594320 0.0000000000
0.0322580636 0.1104594320 0.0000000000
0.0645161271 0.1104594320 0.0000000000
0.0889540538 0.1104594320 0.0000000000
0.1124144644 0.1104594320 0.0000000000
0.1339198500 0.1104594320 0.0000000000
0.1554252207 0.1104594320 0.0000000000
0.1759530753 0.1104594320 0.0000000000
0.1964809448 0.1094819158 0.0000000000
0.2179863155 0.1094819158 0.0000000000
0.2385141701 0.1075268835 0.0000000000
0.2590420246 0.1065493673 0.0000000000
0.2795698941 0.1055718511 0.0000000000
0.2991202474 0.1036168113 0.0000000000
0.3196480870 0.1016617790 0.0078201368
0.3401759565 0.0997067466 0.0127077224
0.3636363745 0.0967741907 0.0175953079
0.3900293112 0.0938416421 0.0215053763
0.4173997939 0.0899315774 0.0254154447
0.4477028251 0.0840664729 0.0303030312
0.4809384048 0.0782013685 0.0351906158
0.5161290169 0.0713587478 0.0400782004
0.5532746911 0.0615835786 0.0459433049
0.5933528543 0.0488758571 0.0518084057
0.6353861094 0.0312805474 0.0576735102
0.6803519130 0.0000000000 0.0645161271
0.7282502651 0.0000000000 0.0713587478
0.7781035900 0.0000000000 0.0791788846
0.8308895230 0.0000000000 0.0869990215
0.8866080046 0.0000000000 0.0957966745
0.9442815185 0.0000000000 0.1045943275
0.0000000000 0.1300097704 0.0000000000
0.0000000000 0.1300097704 0.0000000000
0.0000000000 0.1300097704 0.0000000000
0.0000000000 0.1300097704 0.0000000000
0.0566959940 0.1309872866 0.0000000000
0.0850439891 0.1309872866 0.0000000000
0.1094819158 0.1309872866 0.0000000000
0.1329423338 0.1309872866 0.0000000000
0.1544477046 0.1309872866 0.0000000000
0.1769305915 0.1309872866 0.0000000000
0.1974584609 0.1309872866 0.0000000000
0.2189638317 0.1300097704 0.0000000000
0.2404692024 0.1300097704 0.0000000000
0.2609970570 0.1290322542 0.0000000000
0.2815249264 0.1280547380 0.0000000000
0.3030303121 0.1260997057 0.0000000000
0.3225806355 0.1251221895 0.0000000000
0.3450635374 0.1231671572 0.0000000000
0.3685239553 0.1212121248 0.0087976540
0.3949169219 0.1182795689 0.0156402737
0.4222874045 0.1153470203 0.0205278601
0.4535679519 0.1114369482 0.0263929628
0.4868035316 0.1065493673 0.0312805474
0.5219941139 0.1016617790 0.0371456519
0.5591397882 0.0948191583 0.0430107526
0.5992180109 0.0869990215 0.0488758571
0.6422287226 0.0782013685 0.0557184741
0.6871945262 0.0684261993 0.0625610948
0.7350928783 0.0557184741 0.0703812316
0.7849462628 0.0381231681 0.0782013685
0.8377321362 0.0000000000 0.0860215053
0.8924731016 0.0000000000 0.0948191583
0.9511241317 0.0000000000 0.1036168113
0.0000000000 0.1505376399 0.0000000000
0.0000000000 0.1505376399 0.0000000000
0.0000000000 0.1505376399 0.0000000000
0.0000000000 0.1505376399 0.0000000000
0.0439882688 0.1505376399 0.0000000000
0.0791788846 0.1515151560 0.0000000000
0.1055718511 0.1515151560 0.0000000000
0.1300097704 0.1515151560 0.0000000000
0.1534701884 0.1515151560 0.0000000000
0.1759530753 0.1515151560 0.0000000000
0.1984359771 0.1515151560 0.0000000000
0.2199413478 0.1515151560 0.0000000000
0.2414467186 0.1515151560 0.0000000000
0.2629520893 0.1505376399 0.0000000000
0.2844574749 0.1495601237 0.0000000000
0.3049853444 0.1485826075 0.0000000000
0.3264907002 0.1476050764 0.0000000000
0.3479960859 0.1466275603 0.0000000000
0.3724340200 0.1446725279 0.0000000000
0.3988269866 0.1427174956 0.0000000000
0.4271749854 0.1397849470 0.0136852395
0.4584555328 0.1358748823 0.0205278601
0.4916911125 0.1329423338 0.0273704790
0.5278592110 0.1280547380 0.0332355835
0.5659824014 0.1221896410 0.0400782004
0.6060606241 0.1163245365 0.0459433049
0.6490713358 0.1094819158 0.0527859256
0.6940371394 0.1006842628 0.0596285425
0.7419354916 0.0918866098 0.0684261993
0.7917888761 0.0830889568 0.0762463361
0.8445748091 0.0742913038 0.0840664729
0.9002932310 0.0654936433 0.0928641260
0.9579667449 0.0557184741 0.1026392952
0.0000000000 0.1710654944 0.0000000000
0.0000000000 0.1710654944 0.0000000000
0.0000000000 0.1710654944 0.0000000000
0.0000000000 0.1710654944 0.0000000000
0.0107526882 0.1720430106 0.0000000000
0.0694037154 0.1720430106 0.0000000000
0.1006842628 0.1720430106 0.0000000000
0.1270772219 0.1730205268 0.0000000000
0.1515151560 0.1730205268 0.0000000000
0.1749755591 0.1730205268 0.0000000000
0.1974584609 0.1730205268 0.0000000000
0.2199413478 0.1730205268 0.0000000000
0.2424242496 0.1730205268 0.0000000000
0.2639296055 0.1720430106 0.0000000000
0.2854349911 0.1720430106 0.0000000000
0.3069403768 0.1710654944 0.0000000000
0.3284457624 0.1700879782 0.0000000000
0.3509286344 0.1691104621 0.0000000000
0.3753665686 0.1671554297 0.0000000000
0.4027370512 0.1661779135 0.0000000000
0.4320625663 0.1632453501 0.0000000000
0.4633431137 0.1603128016 0.0097751711
0.4965786934 0.1564027369 0.0205278601
0.5337243676 0.1524926722 0.0283479970
0.5718474984 0.1476050764 0.0351906158
0.6129032373 0.1417399794 0.0430107526
0.6559139490 0.1348973662 0.0498533733
0.7018572688 0.1280547380 0.0576735102
0.7497556210 0.1202346012 0.0654936433
0.7996090055 0.1133919880 0.0742913038
0.8523949385 0.1055718511 0.0821114406
0.9081134200 0.0977517143 0.0909090936
0.9657868743 0.0889540538 0.1006842628
0.0000000000 0.1915933490 0.0000000000
0.0000000000 0.1915933490 0.0000000000
0.0000000000 0.1915933490 0.0000000000
0.0000000000 0.1925708652 0.0000000000
0.0000000000 0.1925708652 0.0000000000
0.0557184741 0.1925708652 0.0000000000
0.0928641260 0.1935483813 0.0000000000
0.1221896410 0.1935483813 0.0000000000
0.1485826075 0.1935483813 0.0000000000
0.1730205268 0.1945258975 0.0000000000
0.1964809448 0.1945258975 0.0000000000
0.2189638317 0.1945258975 0.0000000000
0.2424242496 0.1945258975 0.0000000000
0.2649071217 0.1935483813 0.0000000000
0.2873900235 0.1935483813 0.0000000000
0.3088954091 0.1935483813 0.0000000000
0.3304007947 0.1925708652 0.0000000000
0.3528836668 0.1915933490 0.0000000000
0.3782991171 0.1906158328 0.0000000000
0.4056695998 0.1886608005 0.0000000000
0.4349951148 0.1867057681 0.0000000000
0.4672531784 0.1837732196 0.0000000000
0.5014662743 0.1798631549 0.0068426197
0.5376344323 0.1759530753 0.0215053763
0.5777125955 0.1720430106 0.0303030312
0.6187683344 0.1661779135 0.0381231681
0.6627566218 0.1603128016 0.0459433049
0.7086998820 0.1534701884 0.0537634417
0.7565982342 0.1466275603 0.0625610948
0.8074291348 0.1388074309 0.0713587478
0.8602150679 0.1309872866 0.0801564008
0.9159335494 0.1241446733 0.0899315774
0.9736070633 0.1163245365 0.0997067466
0.0000000000 0.2130987346 0.0000000000
0.0000000000 0.2130987346 0.0000000000
0.0000000000 0.2130987346 0.0000000000
0.0000000000 0.2130987346 0.0000000000
0.0000000000 0.2140762508 0.0000000000
0.0263929628 0.2140762508 0.0000000000
0.0830889568 0.2140762508 0.0000000000
0.1163245365 0.2150537670 0.0000000000
0.1436950117 0.2150537670 0.0000000000
0.1700879782 0.2150537670 0.0000000000
0.1945258975 0.2160312831 0.0000000000
0.2189638317 0.2160312831 0.0000000000
0.2414467186 0.2160312831 0.0000000000
0.2649071217 0.2160312831 0.0000000000
0.2873900235 0.2160312831 0.0000000000
0.3098729253 0.2150537670 0.0000000000
0.3313783109 0.2150537670 0.0000000000
0.3548386991 0.2140762508 0.0000000000
0.3802541494 0.2130987346 0.0000000000
0.4076246321 0.2111437023 0.0000000000
0.4379276633 0.2091886550 0.0000000000
0.4701857269 0.2062561065 0.0000000000
0.5053763390 0.2033235580 0.0000000000
0.5425220132 0.1994134933 0.0048875855
0.5826001763 0.1955034286 0.0224828944
0.6246334314 0.1896383166 0.0332355835
0.6686217189 0.1847507358 0.0410557203
0.7155424953 0.1779081076 0.0498533733
0.7644183636 0.1710654944 0.0586510263
0.8152492642 0.1632453501 0.0684261993
0.8690127134 0.1564027369 0.0772238523
0.9247311950 0.1485826075 0.0869990215
0.9824047089 0.1427174956 0.0967741907
0.0000000000 0.2336265892 0.0000000000
0.0000000000 0.2336265892 0.0000000000
0.0000000000 0.2346041054 0.0000000000
0.0000000000 0.2346041054 0.0000000000
0.0000000000 0.2346041054 0.0000000000
0.0000000000 0.2355816215 0.0000000000
0.0684261993 0.2355816215 0.0000000000
0.1075268835 0.2365591377 0.0000000000
0.1378299147 0.2365591377 0.0000000000
0.1652003974 0.2365591377 0.0000000000
0.1915933490 0.2375366539 0.0000000000
0.2160312831 0.2375366539 0.0000000000
0.2404692024 0.2375366539 0.0000000000
0.2639296055 0.2375366539 0.0000000000
0.2864125073 0.2375366539 0.0000000000
0.3098729253 0.2375366539 0.0000000000
0.3313783109 0.2365591377 0.0000000000
0.3548386991 0.2355816215 0.0000000000
0.3802541494 0.2346041054 0.0000000000
0.4086021483 0.2336265892 0.0000000000
0.4398826957 0.2316715568 0.0000000000
0.4721407592 0.2297165245 0.0000000000
0.5083088875 0.2267839760 0.0000000000
0.5464320779 0.2228738964 0.0000000000
0.5865102410 0.2189638317 0.0000000000
0.6295210123 0.2130987346 0.0244379286
0.6744868159 0.2072336227 0.0361681320
0.7214076519 0.2013685256 0.0459433049
0.7712609768 0.1945258975 0.0547409579
0.8230693936 0.1867057681 0.0654936433
0.8768328428 0.1788856238 0.0752688199
0.9325513244 0.1710654944 0.0850439891
0.9902248383 0.1642228812 0.0948191583
0.0000000000 0.2551319599 0.0000000000
0.0000000000 0.2551319599 0.0000000000
0.0000000000 0.2561094761 0.0000000000
0.0000000000 0.2561094761 0.0000000000
0.0000000000 0.2561094761 0.0000000000
0.0000000000 0.2570869923 0.0000000000
0.0430107526 0.2570869923 0.0000000000
0.0957966745 0.2580645084 0.0000000000
0.1300097704 0.2580645084 0.0000000000
0.1603128016 0.2590420246 0.0000000000
0.1876832843 0.2590420246 0.0000000000
0.2130987346 0.2590420246 0.0000000000
0.2385141701 0.2590420246 0.0000000000
0.2619745731 0.2590420246 0.0000000000
0.2854349911 0.2590420246 0.0000000000
0.3088954091 0.2590420246 0.0000000000
0.3313783109 0.2580645084 0.0000000000
0.3548386991 0.2580645084 0.0000000000
0.3812316656 0.2570869923 0.0000000000
0.4095796645 0.2561094761 0.0000000000
0.4408602118 0.2541544437 0.0000000000
0.4740957916 0.2521994114 0.0000000000
0.5102639198 0.2492668629 0.0000000000
0.5493646264 0.2453567982 0.0000000000
0.5904203057 0.2414467186 0.0000000000
0.6334310770 0.2365591377 0.0087976540
0.6793743968 0.2306940407 0.0283479970
0.7272727489 0.2248289287 0.0400782004
0.7781035900 0.2170087993 0.0508308895
0.8299120069 0.2101661712 0.0615835786
0.8846529722 0.2023460418 0.0713587478
0.9403714538 0.1945258975 0.0821114406
0.9990224838 0.1867057681 0.0918866098
0.0000000000 0.2776148617 0.0000000000
0.0000000000 0.2776148617 0.0000000000
0.0000000000 0.2776148617 0.0000000000
0.0000000000 0.2776148617 0.0000000000
0.0000000000 0.2776148617 0.0000000000
0.0000000000 0.2785923779 0.0000000000
0.0000000000 0.2785923779 0.0000000000
0.0801564008 0.2795698941 0.0000000000
0.1212121248 0.2795698941 0.0000000000
0.1534701884 0.2805474102 0.0000000000
0.1827957034 0.2805474102 0.0000000000
0.2091886550 0.2805474102 0.0000000000
0.2355816215 0.2805474102 0.0000000000
0.2600195408 0.2805474102 0.0000000000
0.2834799588 0.2805474102 0.0000000000
0.3069403768 0.2805474102 0.0000000000
0.3304007947 0.2805474102 0.0000000000
0.3548386991 0.2795698941 0.0000000000
0.3812316656 0.2785923779 0.0000000000
0.4095796645 0.2776148617 0.0000000000
0.4408602118 0.2766373456 0.0000000000
0.4750733078 0.2746823132 0.0000000000
0.5122189522 0.2717497647 0.0000000000
0.5513196588 0.2688172162 0.0000000000
0.5933528543 0.2649071217 0.0000000000
0.6373411417 0.2600195408 0.0000000000
0.6842619777 0.2541544437 0.0156402737
0.7331378460 0.2473118305 0.0332355835
0.7839687467 0.2404692024 0.0449657887
0.8367546201 0.2326490730 0.0566959940
0.8914955854 0.2248289287 0.0674486831
0.9481915832 0.2160312831 0.0782013685
1.0000000000 0.2082111388 0.0899315774
0.0000000000 0.2991202474 0.0000000000
0.0000000000 0.2991202474 0.0000000000
0.0000000000 0.2991202474 0.0000000000
0.0000000000 0.2991202474 0.0000000000
0.0000000000 0.2991202474 0.0000000000
0.0000000000 0.3000977635 0.0000000000
0.0000000000 0.3000977635 0.0000000000
0.0566959940 0.3010752797 0.0000000000
0.1085043997 0.3010752797 0.0000000000
0.1446725279 0.3020527959 0.0000000000
0.1769305915 0.3020527959 0.0000000000
0.2043010741 0.3020527959 0.0000000000
0.2306940407 0.3020527959 0.0000000000
0.2570869923 0.3020527959 0.0000000000
0.2815249264 0.3020527959 0.0000000000
0.3049853444 0.3020527959 0.0000000000
0.3284457624 0.3020527959 0.0000000000
0.3528836668 0.3010752797 0.0000000000
0.3802541494 0.3000977635 0.0000000000
0.4095796645 0.2991202474 0.0000000000
0.4418377280 0.2981427312 0.0000000000
0.4760508239 0.2961876690 0.0000000000
0.5131964684 0.2942326367 0.0000000000
0.5532746911 0.2903225720 0.0000000000
0.5953079462 0.2873900235 0.0000000000
0.6402736902 0.2825024426 0.0000000000
0.6881720424 0.2766373456 0.0000000000
0.7380254269 0.2697947323 0.0224828944
0.7888563275 0.2629520893 0.0381231681
0.8426197171 0.2551319599 0.0518084057
0.8983381987 0.2473118305 0.0625610948
0.9560117126 0.2385141701 0.0752688199
1.0000000000 0.2287390083 0.0860215053
0.0000000000 0.3196480870 0.0000000000
0.0000000000 0.3196480870 0.0000000000
0.0000000000 0.3206256032 0.0000000000
0.0000000000 0.3206256032 0.0000000000
0.0000000000 0.3206256032 0.0000000000
0.0000000000 0.3216031194 0.0000000000
0.0000000000 0.3216031194 0.0000000000
0.0000000000 0.3216031194 0.0000000000
0.0928641260 0.3225806355 0.0000000000
0.1348973662 0.3225806355 0.0000000000
0.1671554297 0.3235581517 0.0000000000
0.1984359771 0.3235581517 0.0000000000
0.2258064449 0.3235581517 0.0000000000
0.2521994114 0.3235581517 0.0000000000
0.2776148617 0.3235581517 0.0000000000
0.3020527959 0.3235581517 0.0000000000
0.3264907002 0.3225806355 0.0000000000
0.3519061506 0.3225806355 0.0000000000
0.3792766333 0.3216031194 0.0000000000
0.4086021483 0.3206256032 0.0000000000
0.4408602118 0.3196480870 0.0000000000
0.4760508239 0.3176930547 0.0000000000
0.5131964684 0.3157380223 0.0000000000
0.5542522073 0.3128054738 0.0000000000
0.5972629786 0.3088954091 0.0000000000
0.6432062387 0.3049853444 0.0000000000
0.6911045909 0.2991202474 0.0000000000
0.7419354916 0.2922776043 0.0000000000
0.7947214246 0.2854349911 0.0293255132
0.8484848738 0.2776148617 0.0449657887
0.9051808119 0.2688172162 0.0586510263
0.9638318419 0.2600195408 0.0713587478
1.0000000000 0.2512218952 0.0830889568
0.0000000000 0.3421309888 0.0000000000
0.0000000000 0.3421309888 0.0000000000
0.0000000000 0.3431085050 0.0000000000
0.0000000000 0.3431085050 0.0000000000
0.0000000000 0.3431085050 0.0000000000
0.0000000000 0.3440860212 0.0000000000
0.0000000000 0.3440860212 0.0000000000
0.0000000000 0.3440860212 0.0000000000
0.0674486831 0.3450635374 0.0000000000
0.1212121248 0.3450635374 0.0000000000
0.1583577693 0.3450635374 0.0000000000
0.1906158328 0.3460410535 0.0000000000
0.2199413478 0.3460410535 0.0000000000
0.2473118305 0.3460410535 0.0000000000
0.2737047970 0.3460410535 0.0000000000
0.2981427312 0.3460410535 0.0000000000
0.3235581517 0.3450635374 0.0000000000
0.3489736021 0.3450635374 0.0000000000
0.3763440847 0.3440860212 0.0000000000
0.4066471159 0.3431085050 0.0000000000
0.4398826957 0.3421309888 0.0000000000
0.4750733078 0.3401759565 0.0000000000
0.5131964684 0.3382209241 0.0000000000
0.5542522073 0.3362658918 0.0000000000
0.5982404947 0.3323558271 0.0000000000
0.6441837549 0.3284457624 0.0000000000
0.6940371394 0.3225806355 0.0000000000
0.7448680401 0.3167155385 0.0000000000
0.7986314893 0.3088954091 0.0087976540
0.8543499708 0.3010752797 0.0361681320
0.9120234847 0.2922776043 0.0518084057
0.9706745148 0.2825024426 0.0654936433
1.0000000000 0.2727272809 0.0791788846
0.0000000000 0.3675464392 0.0000000000
0.0000000000 0.3675464392 0.0000000000
0.0000000000 0.3675464392 0.0000000000
0.0000000000 0.3675464392 0.0000000000
0.0000000000 0.3675464392 0.0000000000
0.0000000000 0.3685239553 0.0000000000
0.0000000000 0.3685239553 0.0000000000
0.0000000000 0.3695014715 0.0000000000
0.0000000000 0.3695014715 0.0000000000
0.0997067466 0.3695014715 0.0000000000
0.1446725279 0.3704789877 0.0000000000
0.1798631549 0.3704789877 0.0000000000
0.2111437023 0.3704789877 0.0000000000
